app/src/main/assets/luts/builtin/builtin_hasselblad_natural_33.cube
TITLE "builtin_hasselblad_natural_33.cube"
LUT_3D_SIZE 5
# Built-in fallback LUT for OMaster
DOMAIN_MIN 0.0 0.0 0.0
DOMAIN_MAX 1.0 1.0 1.0
0.046200 0.030000 0.013800
0.277933 0.024133 0.007933
0.541267 0.017467 0.001267
0.804600 0.010800 0.000000
1.000000 0.004667 0.000000
0.040333 0.261733 0.007933
0.272067 0.255867 0.002067
0.535400 0.249200 0.000000
0.798733 0.242533 0.000000
1.000000 0.236400 0.000000
0.033667 0.525067 0.001267
0.265400 0.519200 0.000000
0.528733 0.512533 0.000000
0.792067 0.505867 0.000000
1.000000 0.499733 0.000000
0.027000 0.788400 0.000000
0.258733 0.782533 0.000000
0.522067 0.775867 0.000000
0.785400 0.769200 0.000000
1.000000 0.763067 0.000000
0.020867 1.000000 0.000000
0.252600 1.000000 0.000000
0.515933 1.000000 0.000000
0.779267 1.000000 0.000000
1.000000 1.000000 0.000000
0.040333 0.024133 0.245533
0.272067 0.018267 0.239667
0.535400 0.011600 0.233000
0.798733 0.004933 0.226333
1.000000 0.000000 0.220200
0.034467 0.255867 0.239667
0.266200 0.250000 0.233800
0.529533 0.243333 0.227133
0.792867 0.236667 0.220467
1.000000 0.230533 0.214333
0.027800 0.519200 0.233000
0.259533 0.513333 0.227133
0.522867 0.506667 0.220467
0.786200 0.500000 0.213800
1.000000 0.493867 0.207667
0.021133 0.782533 0.226333
0.252867 0.776667 0.220467
0.516200 0.770000 0.213800
0.779533 0.763333 0.207133
1.000000 0.757200 0.201000
0.015000 1.000000 0.220200
0.246733 1.000000 0.214333
0.510067 1.000000 0.207667
0.773400 1.000000 0.201000
1.000000 0.999467 0.194867
0.033667 0.017467 0.508867
0.265400 0.011600 0.503000
0.528733 0.004933 0.496333
0.792067 0.000000 0.489667
1.000000 0.000000 0.483533
0.027800 0.249200 0.503000
0.259533 0.243333 0.497133
0.522867 0.236667 0.490467
0.786200 0.230000 0.483800
1.000000 0.223867 0.477667
0.021133 0.512533 0.496333
0.252867 0.506667 0.490467
0.516200 0.500000 0.483800
0.779533 0.493333 0.477133
1.000000 0.487200 0.471000
0.014467 0.775867 0.489667
0.246200 0.770000 0.483800
0.509533 0.763333 0.477133
0.772867 0.756667 0.470467
1.000000 0.750533 0.464333
0.008333 1.000000 0.483533
0.240067 1.000000 0.477667
0.503400 1.000000 0.471000
0.766733 0.998933 0.464333
1.000000 0.992800 0.458200
0.027000 0.010800 0.772200
0.258733 0.004933 0.766333
0.522067 0.000000 0.759667
0.785400 0.000000 0.753000
1.000000 0.000000 0.746867
0.021133 0.242533 0.766333
0.252867 0.236667 0.760467
0.516200 0.230000 0.753800
0.779533 0.223333 0.747133
1.000000 0.217200 0.741000
0.014467 0.505867 0.759667
0.246200 0.500000 0.753800
0.509533 0.493333 0.747133
0.772867 0.486667 0.740467
1.000000 0.480533 0.734333
0.007800 0.769200 0.753000
0.239533 0.763333 0.747133
0.502867 0.756667 0.740467
0.766200 0.750000 0.733800
1.000000 0.743867 0.727667
0.001667 1.000000 0.746867
0.233400 1.000000 0.741000
0.496733 0.998933 0.734333
0.760067 0.992267 0.727667
1.000000 0.986133 0.721533
0.020867 0.004667 1.000000
0.252600 0.000000 1.000000
0.515933 0.000000 1.000000
0.779267 0.000000 0.995267
1.000000 0.000000 0.989133
0.015000 0.236400 1.000000
0.246733 0.230533 1.000000
0.510067 0.223867 0.996067
0.773400 0.217200 0.989400
1.000000 0.211067 0.983267
0.008333 0.499733 1.000000
0.240067 0.493867 0.996067
0.503400 0.487200 0.989400
0.766733 0.480533 0.982733
1.000000 0.474400 0.976600
0.001667 0.763067 0.995267
0.233400 0.757200 0.989400
0.496733 0.750533 0.982733
0.760067 0.743867 0.976067
1.000000 0.737733 0.969933
0.000000 1.000000 0.989133
0.227267 0.999467 0.983267
0.490600 0.992800 0.976600
0.753933 0.986133 0.969933
0.996200 0.980000 0.963800
