app/src/main/assets/luts/builtin/builtin_kodak_portra_400_33.cube
TITLE "builtin_kodak_portra_400_33.cube"
LUT_3D_SIZE 5
# Built-in fallback LUT for OMaster
DOMAIN_MIN 0.0 0.0 0.0
DOMAIN_MAX 1.0 1.0 1.0
0.044500 0.027840 0.000000
0.314467 0.027840 0.000000
0.558861 0.027840 0.000000
0.792479 0.027840 0.000000
1.000000 0.027840 0.000000
0.044500 0.283244 0.000000
0.314467 0.283244 0.000000
0.558861 0.283244 0.000000
0.792479 0.283244 0.000000
1.000000 0.283244 0.000000
0.044500 0.528136 0.000000
0.314467 0.528136 0.000000
0.558861 0.528136 0.000000
0.792479 0.528136 0.000000
1.000000 0.528136 0.000000
0.044500 0.768500 0.000000
0.314467 0.768500 0.000000
0.558861 0.768500 0.000000
0.792479 0.768500 0.000000
1.000000 0.768500 0.000000
0.044500 0.995198 0.000000
0.314467 0.995198 0.000000
0.558861 0.995198 0.000000
0.792479 0.995198 0.000000
1.000000 0.995198 0.000000
0.044500 0.027840 0.233800
0.314467 0.027840 0.233800
0.558861 0.027840 0.233800
0.792479 0.027840 0.233800
1.000000 0.027840 0.233800
0.044500 0.283244 0.233800
0.314467 0.283244 0.233800
0.558861 0.283244 0.233800
0.792479 0.283244 0.233800
1.000000 0.283244 0.233800
0.044500 0.528136 0.233800
0.314467 0.528136 0.233800
0.558861 0.528136 0.233800
0.792479 0.528136 0.233800
1.000000 0.528136 0.233800
0.044500 0.768500 0.233800
0.314467 0.768500 0.233800
0.558861 0.768500 0.233800
0.792479 0.768500 0.233800
1.000000 0.768500 0.233800
0.044500 0.995198 0.233800
0.314467 0.995198 0.233800
0.558861 0.995198 0.233800
0.792479 0.995198 0.233800
1.000000 0.995198 0.233800
0.044500 0.027840 0.478754
0.314467 0.027840 0.478754
0.558861 0.027840 0.478754
0.792479 0.027840 0.478754
1.000000 0.027840 0.478754
0.044500 0.283244 0.478754
0.314467 0.283244 0.478754
0.558861 0.283244 0.478754
0.792479 0.283244 0.478754
1.000000 0.283244 0.478754
0.044500 0.528136 0.478754
0.314467 0.528136 0.478754
0.558861 0.528136 0.478754
0.792479 0.528136 0.478754
1.000000 0.528136 0.478754
0.044500 0.768500 0.478754
0.314467 0.768500 0.478754
0.558861 0.768500 0.478754
0.792479 0.768500 0.478754
1.000000 0.768500 0.478754
0.044500 0.995198 0.478754
0.314467 0.995198 0.478754
0.558861 0.995198 0.478754
0.792479 0.995198 0.478754
1.000000 0.995198 0.478754
0.044500 0.027840 0.726283
0.314467 0.027840 0.726283
0.558861 0.027840 0.726283
0.792479 0.027840 0.726283
1.000000 0.027840 0.726283
0.044500 0.283244 0.726283
0.314467 0.283244 0.726283
0.558861 0.283244 0.726283
0.792479 0.283244 0.726283
1.000000 0.283244 0.726283
0.044500 0.528136 0.726283
0.314467 0.528136 0.726283
0.558861 0.528136 0.726283
0.792479 0.528136 0.726283
1.000000 0.528136 0.726283
0.044500 0.768500 0.726283
0.314467 0.768500 0.726283
0.558861 0.768500 0.726283
0.792479 0.768500 0.726283
1.000000 0.768500 0.726283
0.044500 0.995198 0.726283
0.314467 0.995198 0.726283
0.558861 0.995198 0.726283
0.792479 0.995198 0.726283
1.000000 0.995198 0.726283
0.044500 0.027840 0.964475
0.314467 0.027840 0.964475
0.558861 0.027840 0.964475
0.792479 0.027840 0.964475
1.000000 0.027840 0.964475
0.044500 0.283244 0.964475
0.314467 0.283244 0.964475
0.558861 0.283244 0.964475
0.792479 0.283244 0.964475
1.000000 0.283244 0.964475
0.044500 0.528136 0.964475
0.314467 0.528136 0.964475
0.558861 0.528136 0.964475
0.792479 0.528136 0.964475
1.000000 0.528136 0.964475
0.044500 0.768500 0.964475
0.314467 0.768500 0.964475
0.558861 0.768500 0.964475
0.792479 0.768500 0.964475
1.000000 0.768500 0.964475
0.044500 0.995198 0.964475
0.314467 0.995198 0.964475
0.558861 0.995198 0.964475
0.792479 0.995198 0.964475
1.000000 0.995198 0.964475
