app/src/main/assets/luts/builtin/builtin_teal_orange_33.cube
TITLE "builtin_teal_orange_33.cube"
LUT_3D_SIZE 9
# Built-in fallback LUT for OMaster
DOMAIN_MIN 0.0 0.0 0.0
DOMAIN_MAX 1.0 1.0 1.0
0.000000 0.005000 0.082000
0.036885 0.000615 0.071476
0.178770 0.000000 0.060953
0.320655 0.000000 0.050429
0.462539 0.000000 0.039905
0.604424 0.000000 0.029381
0.746309 0.000000 0.018858
0.888194 0.000000 0.008334
1.000000 0.000000 0.000000
0.000000 0.127749 0.046598
0.051636 0.123364 0.036074
0.193521 0.118979 0.025550
0.335406 0.114594 0.015026
0.477290 0.110210 0.004503
0.619175 0.105825 0.000000
0.761060 0.101440 0.000000
0.902945 0.097055 0.000000
1.000000 0.092670 0.000000
0.000000 0.250498 0.011195
0.066387 0.246113 0.000671
0.208272 0.241728 0.000000
0.350157 0.237343 0.000000
0.492042 0.232958 0.000000
0.633926 0.228574 0.000000
0.775000 0.225000 0.000000
0.912500 0.225000 0.000000
1.000000 0.225000 0.000000
0.000000 0.373247 0.000000
0.081138 0.368862 0.000000
0.223023 0.364477 0.000000
0.362500 0.362500 0.000000
0.500000 0.362500 0.000000
0.637500 0.362500 0.000000
0.775000 0.362500 0.000000
0.912500 0.362500 0.000000
1.000000 0.362500 0.000000
0.000000 0.500000 0.000000
0.087500 0.500000 0.000000
0.225000 0.500000 0.000000
0.362500 0.500000 0.000000
0.500000 0.500000 0.000000
0.637500 0.500000 0.000000
0.778751 0.501875 0.000000
0.922098 0.504799 0.000000
1.000000 0.507722 0.000000
0.000000 0.637500 0.000000
0.087500 0.637500 0.000000
0.225033 0.637517 0.000000
0.368379 0.640440 0.000000
0.511726 0.643363 0.000000
0.655072 0.646286 0.000000
0.798419 0.649209 0.000000
0.941766 0.652133 0.000000
1.000000 0.655056 0.000000
0.000000 0.779004 0.000000
0.101355 0.781927 0.000000
0.244701 0.784851 0.000000
0.388047 0.787774 0.000000
0.531394 0.790697 0.000000
0.674740 0.793620 0.000000
0.818087 0.796543 0.000000
0.961434 0.799467 0.000000
1.000000 0.802390 0.000000
0.000000 0.926338 0.000000
0.121022 0.929261 0.000000
0.264369 0.932184 0.000000
0.407716 0.935108 0.000000
0.551062 0.938031 0.000000
0.694408 0.940954 0.000000
0.837755 0.943878 0.000000
0.981102 0.946801 0.000000
1.000000 0.949724 0.000000
0.000000 1.000000 0.000000
0.140690 1.000000 0.000000
0.284037 1.000000 0.000000
0.427384 1.000000 0.000000
0.570730 1.000000 0.000000
0.714077 1.000000 0.000000
0.857423 1.000000 0.000000
1.000000 1.000000 0.000000
1.000000 1.000000 0.000000
0.000000 0.003511 0.215926
0.038374 0.000000 0.205402
0.180259 0.000000 0.194879
0.322144 0.000000 0.184355
0.464029 0.000000 0.173831
0.605913 0.000000 0.163308
0.747798 0.000000 0.152784
0.889683 0.000000 0.142260
1.000000 0.000000 0.131736
0.000000 0.126260 0.180524
0.053125 0.121875 0.170000
0.195010 0.117490 0.159476
0.336895 0.113105 0.148953
0.478780 0.108720 0.138429
0.620664 0.104335 0.127905
0.762549 0.099951 0.117381
0.904434 0.095566 0.106858
1.000000 0.091181 0.096334
0.000000 0.249009 0.145121
0.067876 0.244624 0.134598
0.209761 0.240239 0.124074
0.351646 0.235854 0.113550
0.493531 0.231469 0.103026
0.635416 0.227084 0.092503
0.775000 0.225000 0.087500
0.912500 0.225000 0.087500
1.000000 0.225000 0.087500
0.000000 0.371758 0.109719
0.082627 0.367373 0.099195
0.224512 0.362988 0.088671
0.362500 0.362500 0.087500
0.500000 0.362500 0.087500
0.637500 0.362500 0.087500
0.775000 0.362500 0.087500
0.912500 0.362500 0.087500
1.000000 0.362500 0.087500
0.000000 0.500000 0.087500
0.087500 0.500000 0.087500
0.225000 0.500000 0.087500
0.362500 0.500000 0.087500
0.500000 0.500000 0.087500
0.637500 0.500000 0.087500
0.780736 0.502868 0.080616
0.924083 0.505791 0.073600
1.000000 0.508715 0.066585
0.000000 0.637500 0.087500
0.087500 0.637500 0.087500
0.227018 0.638509 0.085078
0.370365 0.641433 0.078062
0.513711 0.644356 0.071046
0.657058 0.647279 0.064030
0.800404 0.650202 0.057015
0.943751 0.653126 0.049999
1.000000 0.656049 0.042983
0.000000 0.779997 0.075508
0.103340 0.782920 0.068492
0.246686 0.785843 0.061476
0.390033 0.788767 0.054460
0.533379 0.791690 0.047445
0.676726 0.794613 0.040429
0.820072 0.797536 0.033413
0.963419 0.800459 0.026397
1.000000 0.803383 0.019381
0.000000 0.927331 0.051906
0.123008 0.930254 0.044890
0.266354 0.933177 0.037875
0.409701 0.936101 0.030859
0.553047 0.939024 0.023843
0.696394 0.941947 0.016827
0.839741 0.944870 0.009811
0.983087 0.947794 0.002796
1.000000 0.950717 0.000000
0.000000 1.000000 0.028305
0.142676 1.000000 0.021289
0.286022 1.000000 0.014273
0.429369 1.000000 0.007257
0.572715 1.000000 0.000241
0.716062 1.000000 0.000000
0.859409 1.000000 0.000000
1.000000 1.000000 0.000000
1.000000 1.000000 0.000000
0.000000 0.002022 0.349852
0.039863 0.000000 0.339328
0.181748 0.000000 0.328805
0.323633 0.000000 0.318281
0.465518 0.000000 0.307757
0.607403 0.000000 0.297234
0.749287 0.000000 0.286710
0.891172 0.000000 0.276186
1.000000 0.000000 0.265663
0.000000 0.124771 0.314450
0.054614 0.120386 0.303926
0.196499 0.116001 0.293402
0.338384 0.111616 0.282879
0.480269 0.107231 0.272355
0.622154 0.102846 0.261831
0.764039 0.098461 0.251308
0.905923 0.094077 0.240784
1.000000 0.089692 0.230260
0.000000 0.247520 0.279047
0.069365 0.243135 0.268524
0.211250 0.238750 0.258000
0.353135 0.234365 0.247476
0.495020 0.229980 0.236953
0.636905 0.225595 0.226429
0.775000 0.225000 0.225000
0.912500 0.225000 0.225000
1.000000 0.225000 0.225000
0.000000 0.370269 0.243645
0.084116 0.365884 0.233121
0.225000 0.362500 0.225000
0.362500 0.362500 0.225000
0.500000 0.362500 0.225000
0.637500 0.362500 0.225000
0.775000 0.362500 0.225000
0.912500 0.362500 0.225000
1.000000 0.362500 0.225000
0.000000 0.500000 0.225000
0.087500 0.500000 0.225000
0.225000 0.500000 0.225000
0.362500 0.500000 0.225000
0.500000 0.500000 0.225000
0.639375 0.500938 0.222749
0.782722 0.503861 0.215734
0.926068 0.506784 0.208718
1.000000 0.509707 0.201702
0.000000 0.637500 0.225000
0.087500 0.637500 0.225000
0.229004 0.639502 0.220195
0.372350 0.642425 0.213179
0.515697 0.645348 0.206164
0.659044 0.648272 0.199148
0.802390 0.651195 0.192132
0.945736 0.654118 0.185116
1.000000 0.657042 0.178100
0.000000 0.780990 0.210625
0.105326 0.783913 0.203609
0.248672 0.786836 0.196594
0.392018 0.789759 0.189578
0.535365 0.792683 0.182562
0.678712 0.795606 0.175546
0.822058 0.798529 0.168530
0.965404 0.801452 0.161515
1.000000 0.804376 0.154499
0.000000 0.928324 0.187024
0.124993 0.931247 0.180008
0.268340 0.934170 0.172992
0.411687 0.937093 0.165976
0.555033 0.940017 0.158960
0.698379 0.942940 0.151945
0.841726 0.945863 0.144929
0.985073 0.948786 0.137913
1.000000 0.951710 0.130897
0.001315 1.000000 0.163422
0.144661 1.000000 0.156406
0.288008 1.000000 0.149390
0.431354 1.000000 0.142375
0.574701 1.000000 0.135359
0.718047 1.000000 0.128343
0.861394 1.000000 0.121327
1.000000 1.000000 0.114311
1.000000 1.000000 0.107296
0.000000 0.000533 0.483778
0.041352 0.000000 0.473255
0.183237 0.000000 0.462731
0.325122 0.000000 0.452207
0.467007 0.000000 0.441683
0.608892 0.000000 0.431160
0.750777 0.000000 0.420636
0.892661 0.000000 0.410112
1.000000 0.000000 0.399589
0.000000 0.123282 0.448376
0.056103 0.118897 0.437852
0.197988 0.114512 0.427328
0.339873 0.110127 0.416805
0.481758 0.105742 0.406281
0.623643 0.101357 0.395757
0.765528 0.096972 0.385234
0.907413 0.092587 0.374710
1.000000 0.088203 0.364186
0.000000 0.246031 0.412973
0.070854 0.241646 0.402450
0.212739 0.237261 0.391926
0.354624 0.232876 0.381402
0.496509 0.228491 0.370879
0.637500 0.225000 0.362500
0.775000 0.225000 0.362500
0.912500 0.225000 0.362500
1.000000 0.225000 0.362500
0.000000 0.368780 0.377571
0.085605 0.364395 0.367047
0.225000 0.362500 0.362500
0.362500 0.362500 0.362500
0.500000 0.362500 0.362500
0.637500 0.362500 0.362500
0.775000 0.362500 0.362500
0.912500 0.362500 0.362500
1.000000 0.363366 0.360421
0.000000 0.500000 0.362500
0.087500 0.500000 0.362500
0.225000 0.500000 0.362500
0.362500 0.500000 0.362500
0.500000 0.500000 0.362500
0.641361 0.501930 0.357867
0.784708 0.504854 0.350851
0.928054 0.507777 0.343835
1.000000 0.510700 0.336819
0.000000 0.637500 0.362500
0.087643 0.637571 0.362328
0.230989 0.640495 0.355313
0.374336 0.643418 0.348297
0.517682 0.646341 0.341281
0.661029 0.649265 0.334265
0.804376 0.652188 0.327249
0.947722 0.655111 0.320234
1.000000 0.658034 0.313218
0.000000 0.781982 0.345743
0.107311 0.784906 0.338727
0.250657 0.787829 0.331711
0.394004 0.790752 0.324695
0.537350 0.793675 0.317679
0.680697 0.796598 0.310664
0.824043 0.799522 0.303648
0.967390 0.802445 0.296632
1.000000 0.805368 0.289616
0.000000 0.929316 0.322141
0.126979 0.932239 0.315125
0.270325 0.935163 0.308109
0.413672 0.938086 0.301094
0.557018 0.941009 0.294078
0.700365 0.943933 0.287062
0.843711 0.946856 0.280046
0.987058 0.949779 0.273030
1.000000 0.952702 0.266015
0.003300 1.000000 0.298539
0.146647 1.000000 0.291524
0.289994 1.000000 0.284508
0.433340 1.000000 0.277492
0.576686 1.000000 0.270476
0.720033 1.000000 0.263460
0.863379 1.000000 0.256445
1.000000 1.000000 0.249429
1.000000 1.000000 0.242413
0.000000 0.000000 0.617704
0.042841 0.000000 0.607181
0.184726 0.000000 0.596657
0.326611 0.000000 0.586133
0.468496 0.000000 0.575610
0.610381 0.000000 0.565086
0.752266 0.000000 0.554562
0.894151 0.000000 0.544039
1.000000 0.000000 0.533515
0.000000 0.121792 0.582302
0.057592 0.117408 0.571778
0.199477 0.113023 0.561255
0.341362 0.108638 0.550731
0.483247 0.104253 0.540207
0.625132 0.099868 0.529684
0.767017 0.095483 0.519160
0.908902 0.091098 0.508636
1.000000 0.087500 0.500000
0.000000 0.244542 0.546900
0.072343 0.240157 0.536376
0.214228 0.235772 0.525852
0.356113 0.231387 0.515329
0.497998 0.227002 0.504805
0.637500 0.225000 0.500000
0.775000 0.225000 0.500000
0.912500 0.225000 0.500000
1.000000 0.225000 0.500000
0.000000 0.367290 0.511497
0.087094 0.362906 0.500974
0.225000 0.362500 0.500000
0.362500 0.362500 0.500000
0.500000 0.362500 0.500000
0.637500 0.362500 0.500000
0.775000 0.362500 0.500000
0.912500 0.362500 0.500000
1.000000 0.364359 0.495538
0.000000 0.500000 0.500000
0.087500 0.500000 0.500000
0.225000 0.500000 0.500000
0.362500 0.500000 0.500000
0.500000 0.500000 0.500000
0.643346 0.502923 0.492984
0.786693 0.505846 0.485968
0.930040 0.508770 0.478953
1.000000 0.511693 0.471937
0.000000 0.637500 0.500000
0.089628 0.638564 0.497446
0.232975 0.641487 0.490430
0.376321 0.644411 0.483414
0.519668 0.647334 0.476398
0.663014 0.650257 0.469383
0.806361 0.653181 0.462367
0.949708 0.656104 0.455351
1.000000 0.659027 0.448335
0.000000 0.782975 0.480860
0.109297 0.785898 0.473844
0.252643 0.788822 0.466828
0.395989 0.791745 0.459813
0.539336 0.794668 0.452797
0.682682 0.797591 0.445781
0.826029 0.800515 0.438765
0.969376 0.803438 0.431749
1.000000 0.806361 0.424734
0.000000 0.930309 0.457258
0.128964 0.933232 0.450243
0.272311 0.936156 0.443227
0.415658 0.939079 0.436211
0.559004 0.942002 0.429195
0.702350 0.944925 0.422179
0.845697 0.947849 0.415164
0.989044 0.950772 0.408148
1.000000 0.953695 0.401132
0.005286 1.000000 0.433657
0.148632 1.000000 0.426641
0.291979 1.000000 0.419625
0.435326 1.000000 0.412609
0.578672 1.000000 0.405594
0.722019 1.000000 0.398578
0.865365 1.000000 0.391562
1.000000 1.000000 0.384546
1.000000 1.000000 0.377530
0.000000 0.000000 0.751631
0.044330 0.000000 0.741107
0.186215 0.000000 0.730583
0.328100 0.000000 0.720059
0.469985 0.000000 0.709536
0.611870 0.000000 0.699012
0.753755 0.000000 0.688488
0.895640 0.000000 0.677965
1.000000 0.000000 0.667441
0.000000 0.120303 0.716228
0.059081 0.115918 0.705704
0.200966 0.111534 0.695181
0.342851 0.107149 0.684657
0.484736 0.102764 0.674133
0.626621 0.098379 0.663610
0.768506 0.093994 0.653086
0.910391 0.089609 0.642562
1.000000 0.087500 0.637500
0.000000 0.243052 0.680826
0.073832 0.238667 0.670302
0.215717 0.234283 0.659778
0.357602 0.229898 0.649255
0.499487 0.225513 0.638731
0.637500 0.225000 0.637500
0.775000 0.225000 0.637500
0.912500 0.225000 0.637500
1.000000 0.225000 0.637500
0.000000 0.365801 0.645423
0.087500 0.362500 0.637500
0.225000 0.362500 0.637500
0.362500 0.362500 0.637500
0.500000 0.362500 0.637500
0.637500 0.362500 0.637500
0.775000 0.362500 0.637500
0.912500 0.362500 0.637500
1.000000 0.365352 0.630656
0.000000 0.500000 0.637500
0.087500 0.500000 0.637500
0.225000 0.500000 0.637500
0.362500 0.500000 0.637500
0.501985 0.500993 0.635117
0.645332 0.503916 0.628102
0.788679 0.506839 0.621086
0.932025 0.509763 0.614070
1.000000 0.512686 0.607054
0.000000 0.637500 0.637500
0.091614 0.639557 0.632563
0.234960 0.642480 0.625547
0.378307 0.645404 0.618532
0.521653 0.648327 0.611516
0.665000 0.651250 0.604500
0.808347 0.654173 0.597484
0.951693 0.657096 0.590468
1.000000 0.660020 0.583453
0.000000 0.783968 0.615977
0.111282 0.786891 0.608962
0.254628 0.789814 0.601946
0.397975 0.792737 0.594930
0.541322 0.795661 0.587914
0.684668 0.798584 0.580898
0.828014 0.801507 0.573883
0.971361 0.804431 0.566867
1.000000 0.807354 0.559851
0.000000 0.931302 0.592376
0.130950 0.934225 0.585360
0.274296 0.937148 0.578344
0.417643 0.940072 0.571328
0.560989 0.942995 0.564313
0.704336 0.945918 0.557297
0.847683 0.948841 0.550281
0.991029 0.951765 0.543265
1.000000 0.954688 0.536249
0.007271 1.000000 0.568774
0.150618 1.000000 0.561758
0.293964 1.000000 0.554743
0.437311 1.000000 0.547727
0.580657 1.000000 0.540711
0.724004 1.000000 0.533695
0.867351 1.000000 0.526679
1.000000 1.000000 0.519664
1.000000 1.000000 0.512648
0.000000 0.000000 0.885557
0.045820 0.000000 0.875033
0.187704 0.000000 0.864509
0.329589 0.000000 0.853986
0.471474 0.000000 0.843462
0.613359 0.000000 0.832938
0.755244 0.000000 0.822414
0.897129 0.000000 0.811891
1.000000 0.000000 0.801367
0.000000 0.118814 0.850154
0.060571 0.114429 0.839630
0.202456 0.110044 0.829107
0.344340 0.105660 0.818583
0.486225 0.101275 0.808059
0.628110 0.096890 0.797536
0.769995 0.092505 0.787012
0.911880 0.088120 0.776488
1.000000 0.087500 0.775000
0.000000 0.241563 0.814752
0.075322 0.237178 0.804228
0.217206 0.232793 0.793704
0.359091 0.228409 0.783181
0.500000 0.225000 0.775000
0.637500 0.225000 0.775000
0.775000 0.225000 0.775000
0.912500 0.225000 0.775000
1.000000 0.225000 0.775000
0.000000 0.364312 0.779349
0.087500 0.362500 0.775000
0.225000 0.362500 0.775000
0.362500 0.362500 0.775000
0.500000 0.362500 0.775000
0.637500 0.362500 0.775000
0.775000 0.362500 0.775000
0.914343 0.363421 0.772789
1.000000 0.366345 0.765773
0.000000 0.500000 0.775000
0.087500 0.500000 0.775000
0.225000 0.500000 0.775000
0.362500 0.500000 0.775000
0.503971 0.501986 0.770235
0.647317 0.504909 0.763219
0.790664 0.507832 0.756203
0.934011 0.510755 0.749187
1.000000 0.513678 0.742172
0.000000 0.637626 0.774696
0.093600 0.640550 0.767681
0.236946 0.643473 0.760665
0.380292 0.646396 0.753649
0.523639 0.649320 0.746633
0.666986 0.652243 0.739617
0.810332 0.655166 0.732602
0.953679 0.658089 0.725586
1.000000 0.661013 0.718570
0.000000 0.784961 0.751095
0.113268 0.787884 0.744079
0.256614 0.790807 0.737063
0.399960 0.793730 0.730047
0.543307 0.796653 0.723032
0.686654 0.799577 0.716016
0.830000 0.802500 0.709000
0.973347 0.805423 0.701984
1.000000 0.808347 0.694968
0.000000 0.932295 0.727493
0.132935 0.935218 0.720477
0.276282 0.938141 0.713462
0.419629 0.941064 0.706446
0.562975 0.943987 0.699430
0.706322 0.946911 0.692414
0.849668 0.949834 0.685398
0.993015 0.952757 0.678383
1.000000 0.955681 0.671367
0.009257 1.000000 0.703892
0.152603 1.000000 0.696876
0.295950 1.000000 0.689860
0.439297 1.000000 0.682844
0.582643 1.000000 0.675828
0.725990 1.000000 0.668813
0.869336 1.000000 0.661797
1.000000 1.000000 0.654781
1.000000 1.000000 0.647765
0.000000 0.000000 1.000000
0.047309 0.000000 1.000000
0.189194 0.000000 0.998435
0.331078 0.000000 0.987912
0.472963 0.000000 0.977388
0.614848 0.000000 0.966864
0.756733 0.000000 0.956341
0.898618 0.000000 0.945817
1.000000 0.000000 0.935293
0.000000 0.117325 0.984080
0.062060 0.112940 0.973557
0.203945 0.108555 0.963033
0.345830 0.104170 0.952509
0.487714 0.099786 0.941985
0.629599 0.095401 0.931462
0.771484 0.091016 0.920938
0.912500 0.087500 0.912500
1.000000 0.087500 0.912500
0.000000 0.240074 0.948678
0.076811 0.235689 0.938154
0.218696 0.231304 0.927631
0.360580 0.226919 0.917107
0.500000 0.225000 0.912500
0.637500 0.225000 0.912500
0.775000 0.225000 0.912500
0.912500 0.225000 0.912500
1.000000 0.225000 0.912500
0.000000 0.362823 0.913275
0.087500 0.362500 0.912500
0.225000 0.362500 0.912500
0.362500 0.362500 0.912500
0.500000 0.362500 0.912500
0.637500 0.362500 0.912500
0.775000 0.362500 0.912500
0.916328 0.364414 0.907906
1.000000 0.367337 0.900891
0.000000 0.500000 0.912500
0.087500 0.500000 0.912500
0.225000 0.500000 0.912500
0.362610 0.500055 0.912368
0.505956 0.502978 0.905352
0.649303 0.505902 0.898336
0.792650 0.508825 0.891321
0.935996 0.511748 0.884305
1.000000 0.514671 0.877289
0.000000 0.638619 0.909814
0.095585 0.641543 0.902798
0.238931 0.644466 0.895782
0.382278 0.647389 0.888766
0.525624 0.650312 0.881751
0.668971 0.653236 0.874735
0.812318 0.656159 0.867719
0.955664 0.659082 0.860703
1.000000 0.662005 0.853687
0.000000 0.785953 0.886212
0.115253 0.788877 0.879196
0.258599 0.791800 0.872181
0.401946 0.794723 0.865165
0.545292 0.797646 0.858149
0.688639 0.800569 0.851133
0.831986 0.803493 0.844117
0.975332 0.806416 0.837102
1.000000 0.809339 0.830086
0.000000 0.933287 0.862611
0.134921 0.936211 0.855595
0.278268 0.939134 0.848579
0.421614 0.942057 0.841563
0.564960 0.944980 0.834547
0.708307 0.947904 0.827532
0.851654 0.950827 0.820516
0.995000 0.953750 0.813500
1.000000 0.956673 0.806484
0.011242 1.000000 0.839009
0.154589 1.000000 0.831993
0.297936 1.000000 0.824977
0.441282 1.000000 0.817962
0.584628 1.000000 0.810946
0.727975 1.000000 0.803930
0.871322 1.000000 0.796914
1.000000 1.000000 0.789898
1.000000 1.000000 0.782883
0.000000 0.000000 1.000000
0.048798 0.000000 1.000000
0.190683 0.000000 1.000000
0.332568 0.000000 1.000000
0.474452 0.000000 1.000000
0.616337 0.000000 1.000000
0.758222 0.000000 1.000000
0.900107 0.000000 1.000000
1.000000 0.000000 1.000000
0.000000 0.115836 1.000000
0.063549 0.111451 1.000000
0.205434 0.107066 1.000000
0.347319 0.102681 1.000000
0.489203 0.098297 1.000000
0.631088 0.093912 1.000000
0.772973 0.089527 1.000000
0.912500 0.087500 1.000000
1.000000 0.087500 1.000000
0.000000 0.238585 1.000000
0.078300 0.234200 1.000000
0.220185 0.229815 1.000000
0.362070 0.225430 1.000000
0.500000 0.225000 1.000000
0.637500 0.225000 1.000000
0.775000 0.225000 1.000000
0.912500 0.225000 1.000000
1.000000 0.225000 1.000000
0.000000 0.362500 1.000000
0.087500 0.362500 1.000000
0.225000 0.362500 1.000000
0.362500 0.362500 1.000000
0.500000 0.362500 1.000000
0.637500 0.362500 1.000000
0.775000 0.362500 1.000000
0.918314 0.365407 1.000000
1.000000 0.368330 1.000000
0.000000 0.500000 1.000000
0.087500 0.500000 1.000000
0.225000 0.500000 1.000000
0.364595 0.501048 1.000000
0.507942 0.503971 1.000000
0.651288 0.506894 1.000000
0.794635 0.509817 1.000000
0.937982 0.512741 1.000000
1.000000 0.515664 1.000000
0.000000 0.639612 1.000000
0.097571 0.642535 1.000000
0.240917 0.645458 1.000000
0.384263 0.648382 1.000000
0.527610 0.651305 1.000000
0.670956 0.654228 1.000000
0.814303 0.657151 1.000000
0.957650 0.660075 0.995821
1.000000 0.662998 0.988805
0.000000 0.786946 1.000000
0.117239 0.789869 1.000000
0.260585 0.792793 1.000000
0.403931 0.795716 1.000000
0.547278 0.798639 0.993266
0.690624 0.801562 0.986251
0.833971 0.804485 0.979235
0.977318 0.807409 0.972219
1.000000 0.810332 0.965203
0.000000 0.934280 0.997728
0.136906 0.937203 0.990712
0.280253 0.940127 0.983696
0.423600 0.943050 0.976681
0.566946 0.945973 0.969665
0.710292 0.948896 0.962649
0.853639 0.951820 0.955633
0.996986 0.954743 0.948617
1.000000 0.957666 0.941602
0.013228 1.000000 0.974126
0.156574 1.000000 0.967111
0.299921 1.000000 0.960095
0.443268 1.000000 0.953079
0.586614 1.000000 0.946063
0.729961 1.000000 0.939047
0.873307 1.000000 0.932032
1.000000 1.000000 0.925016
1.000000 1.000000 0.918000
