app/src/main/assets/luts/builtin/builtin_teal_orange_33.cube
TITLE "builtin_teal_orange_33.cube"
LUT_3D_SIZE 33
# Built-in fallback LUT for OMaster
DOMAIN_MIN 0.0 0.0 0.0
DOMAIN_MAX 1.0 1.0 1.0
0.000000 0.005000 0.082000
0.000000 0.003904 0.079369
0.000000 0.002808 0.076738
0.001414 0.001711 0.074107
0.036885 0.000615 0.071476
0.072356 0.000000 0.068845
0.107827 0.000000 0.066214
0.143299 0.000000 0.063584
0.178770 0.000000 0.060953
0.214241 0.000000 0.058322
0.249712 0.000000 0.055691
0.285183 0.000000 0.053060
0.320655 0.000000 0.050429
0.356126 0.000000 0.047798
0.391597 0.000000 0.045167
0.427068 0.000000 0.042536
0.462539 0.000000 0.039905
0.498011 0.000000 0.037274
0.533482 0.000000 0.034643
0.568953 0.000000 0.032012
0.604424 0.000000 0.029381
0.639896 0.000000 0.026751
0.675367 0.000000 0.024120
0.710838 0.000000 0.021489
0.746309 0.000000 0.018858
0.781780 0.000000 0.016227
0.817252 0.000000 0.013596
0.852723 0.000000 0.010965
0.888194 0.000000 0.008334
0.923665 0.000000 0.005703
0.959137 0.000000 0.003072
0.994608 0.000000 0.000441
1.000000 0.000000 0.000000
0.000000 0.035687 0.073149
0.000000 0.034591 0.070518
0.000000 0.033495 0.067888
0.005101 0.032399 0.065257
0.040573 0.031302 0.062626
0.076044 0.030206 0.059995
0.111515 0.029110 0.057364
0.146986 0.028014 0.054733
0.182457 0.026917 0.052102
0.217929 0.025821 0.049471
0.253400 0.024725 0.046840
0.288871 0.023629 0.044209
0.324342 0.022533 0.041578
0.359814 0.021436 0.038947
0.395285 0.020340 0.036316
0.430756 0.019244 0.033686
0.466227 0.018148 0.031055
0.501698 0.017052 0.028424
0.537170 0.015955 0.025793
0.572641 0.014859 0.023162
0.608112 0.013763 0.020531
0.643583 0.012667 0.017900
0.679055 0.011570 0.015269
0.714526 0.010474 0.012638
0.749997 0.009378 0.010007
0.785468 0.008282 0.007376
0.820939 0.007186 0.004745
0.856411 0.006089 0.002114
0.891882 0.004993 0.000000
0.927353 0.003897 0.000000
0.962824 0.002801 0.000000
0.998296 0.001704 0.000000
1.000000 0.000608 0.000000
0.000000 0.066374 0.064299
0.000000 0.065278 0.061668
0.000000 0.064182 0.059037
0.008789 0.063086 0.056406
0.044260 0.061990 0.053775
0.079732 0.060893 0.051144
0.115203 0.059797 0.048513
0.150674 0.058701 0.045882
0.186145 0.057605 0.043251
0.221616 0.056509 0.040620
0.257088 0.055412 0.037990
0.292559 0.054316 0.035359
0.328030 0.053220 0.032728
0.363501 0.052124 0.030097
0.398973 0.051027 0.027466
0.434444 0.049931 0.024835
0.469915 0.048835 0.022204
0.505386 0.047739 0.019573
0.540857 0.046643 0.016942
0.576329 0.045546 0.014311
0.611800 0.044450 0.011680
0.647271 0.043354 0.009049
0.682742 0.042258 0.006418
0.718214 0.041161 0.003788
0.753685 0.040065 0.001157
0.789156 0.038969 0.000000
0.824627 0.037873 0.000000
0.860098 0.036777 0.000000
0.895570 0.035680 0.000000
0.931041 0.034584 0.000000
0.966512 0.033488 0.000000
1.000000 0.032392 0.000000
1.000000 0.031295 0.000000
0.000000 0.097062 0.055448
0.000000 0.095966 0.052817
0.000000 0.094869 0.050186
0.012477 0.093773 0.047555
0.047948 0.092677 0.044924
0.083419 0.091581 0.042294
0.118891 0.090484 0.039663
0.154362 0.089388 0.037032
0.189833 0.088292 0.034401
0.225304 0.087196 0.031770
0.260775 0.086100 0.029139
0.296247 0.085003 0.026508
0.331718 0.083907 0.023877
0.367189 0.082811 0.021246
0.402660 0.081715 0.018615
0.438132 0.080618 0.015984
0.473603 0.079522 0.013353
0.509074 0.078426 0.010722
0.544545 0.077330 0.008092
0.580016 0.076234 0.005461
0.615488 0.075137 0.002830
0.650959 0.074041 0.000199
0.686430 0.072945 0.000000
0.721901 0.071849 0.000000
0.757373 0.070752 0.000000
0.792844 0.069656 0.000000
0.828315 0.068560 0.000000
0.863786 0.067464 0.000000
0.899257 0.066368 0.000000
0.934729 0.065271 0.000000
0.970200 0.064175 0.000000
1.000000 0.063079 0.000000
1.000000 0.061983 0.000000
0.000000 0.127749 0.046598
0.000000 0.126653 0.043967
0.000000 0.125557 0.041336
0.016165 0.124460 0.038705
0.051636 0.123364 0.036074
0.087107 0.122268 0.033443
0.122578 0.121172 0.030812
0.158050 0.120075 0.028181
0.193521 0.118979 0.025550
0.228992 0.117883 0.022919
0.264463 0.116787 0.020288
0.299934 0.115691 0.017657
0.335406 0.114594 0.015026
0.370877 0.113498 0.012396
0.406348 0.112402 0.009765
0.441819 0.111306 0.007134
0.477290 0.110210 0.004503
0.512762 0.109113 0.001872
0.548233 0.108017 0.000000
0.583704 0.106921 0.000000
0.619175 0.105825 0.000000
0.654647 0.104728 0.000000
0.690118 0.103632 0.000000
0.725589 0.102536 0.000000
0.761060 0.101440 0.000000
0.796531 0.100344 0.000000
0.832003 0.099247 0.000000
0.867474 0.098151 0.000000
0.902945 0.097055 0.000000
0.938416 0.095959 0.000000
0.973888 0.094862 0.000000
1.000000 0.093766 0.000000
1.000000 0.092670 0.000000
0.000000 0.158436 0.037747
0.000000 0.157340 0.035116
0.000000 0.156244 0.032485
0.019852 0.155148 0.029854
0.055324 0.154051 0.027223
0.090795 0.152955 0.024592
0.126266 0.151859 0.021961
0.161737 0.150763 0.019331
0.197209 0.149666 0.016700
0.232680 0.148570 0.014069
0.268151 0.147474 0.011438
0.303622 0.146378 0.008807
0.339093 0.145282 0.006176
0.374565 0.144185 0.003545
0.410036 0.143089 0.000914
0.445507 0.141993 0.000000
0.480978 0.140897 0.000000
0.516449 0.139801 0.000000
0.551921 0.138704 0.000000
0.587392 0.137608 0.000000
0.622863 0.136512 0.000000
0.658334 0.135416 0.000000
0.693806 0.134319 0.000000
0.729277 0.133223 0.000000
0.764748 0.132127 0.000000
0.800219 0.131031 0.000000
0.835690 0.129935 0.000000
0.871162 0.128838 0.000000
0.906633 0.127742 0.000000
0.942104 0.126646 0.000000
0.977575 0.125550 0.000000
1.000000 0.124453 0.000000
1.000000 0.123357 0.000000
0.000000 0.189123 0.028896
0.000000 0.188027 0.026265
0.000000 0.186931 0.023635
0.023540 0.185835 0.021004
0.059011 0.184739 0.018373
0.094483 0.183642 0.015742
0.129954 0.182546 0.013111
0.165425 0.181450 0.010480
0.200896 0.180354 0.007849
0.236367 0.179258 0.005218
0.271839 0.178161 0.002587
0.307310 0.177065 0.000000
0.342781 0.175969 0.000000
0.378252 0.174873 0.000000
0.413724 0.173776 0.000000
0.449195 0.172680 0.000000
0.484666 0.171584 0.000000
0.520137 0.170488 0.000000
0.555608 0.169392 0.000000
0.591080 0.168295 0.000000
0.626551 0.167199 0.000000
0.662022 0.166103 0.000000
0.697493 0.165007 0.000000
0.732965 0.163910 0.000000
0.768436 0.162814 0.000000
0.803907 0.161718 0.000000
0.839378 0.160622 0.000000
0.874849 0.159526 0.000000
0.910321 0.158429 0.000000
0.945792 0.157333 0.000000
0.981250 0.156250 0.000000
1.000000 0.156250 0.000000
1.000000 0.156250 0.000000
0.000000 0.219811 0.020046
0.000000 0.218715 0.017415
0.000000 0.217618 0.014784
0.027228 0.216522 0.012153
0.062699 0.215426 0.009522
0.098170 0.214330 0.006891
0.133642 0.213233 0.004260
0.169113 0.212137 0.001629
0.204584 0.211041 0.000000
0.240055 0.209945 0.000000
0.275526 0.208849 0.000000
0.310998 0.207752 0.000000
0.346469 0.206656 0.000000
0.381940 0.205560 0.000000
0.417411 0.204464 0.000000
0.452883 0.203367 0.000000
0.488354 0.202271 0.000000
0.523825 0.201175 0.000000
0.559296 0.200079 0.000000
0.594767 0.198983 0.000000
0.630239 0.197886 0.000000
0.665710 0.196790 0.000000
0.701181 0.195694 0.000000
0.736652 0.194598 0.000000
0.772123 0.193501 0.000000
0.807595 0.192405 0.000000
0.843066 0.191309 0.000000
0.878125 0.190625 0.000000
0.912500 0.190625 0.000000
0.946875 0.190625 0.000000
0.981250 0.190625 0.000000
1.000000 0.190625 0.000000
1.000000 0.190625 0.000000
0.000000 0.250498 0.011195
0.000000 0.249402 0.008564
0.000000 0.248306 0.005933
0.030916 0.247209 0.003302
0.066387 0.246113 0.000671
0.101858 0.245017 0.000000
0.137329 0.243921 0.000000
0.172801 0.242824 0.000000
0.208272 0.241728 0.000000
0.243743 0.240632 0.000000
0.279214 0.239536 0.000000
0.314685 0.238440 0.000000
0.350157 0.237343 0.000000
0.385628 0.236247 0.000000
0.421099 0.235151 0.000000
0.456570 0.234055 0.000000
0.492042 0.232958 0.000000
0.527513 0.231862 0.000000
0.562984 0.230766 0.000000
0.598455 0.229670 0.000000
0.633926 0.228574 0.000000
0.669398 0.227477 0.000000
0.704869 0.226381 0.000000
0.740340 0.225285 0.000000
0.775000 0.225000 0.000000
0.809375 0.225000 0.000000
0.843750 0.225000 0.000000
0.878125 0.225000 0.000000
0.912500 0.225000 0.000000
0.946875 0.225000 0.000000
0.981250 0.225000 0.000000
1.000000 0.225000 0.000000
1.000000 0.225000 0.000000
0.000000 0.281185 0.002345
0.000000 0.280089 0.000000
0.000000 0.278993 0.000000
0.034603 0.277897 0.000000
0.070075 0.276800 0.000000
0.105546 0.275704 0.000000
0.141017 0.274608 0.000000
0.176488 0.273512 0.000000
0.211959 0.272415 0.000000
0.247431 0.271319 0.000000
0.282902 0.270223 0.000000
0.318373 0.269127 0.000000
0.353844 0.268031 0.000000
0.389316 0.266934 0.000000
0.424787 0.265838 0.000000
0.460258 0.264742 0.000000
0.495729 0.263646 0.000000
0.531200 0.262550 0.000000
0.566672 0.261453 0.000000
0.602143 0.260357 0.000000
0.637500 0.259375 0.000000
0.671875 0.259375 0.000000
0.706250 0.259375 0.000000
0.740625 0.259375 0.000000
0.775000 0.259375 0.000000
0.809375 0.259375 0.000000
0.843750 0.259375 0.000000
0.878125 0.259375 0.000000
0.912500 0.259375 0.000000
0.946875 0.259375 0.000000
0.981250 0.259375 0.000000
1.000000 0.259375 0.000000
1.000000 0.259375 0.000000
0.000000 0.311872 0.000000
0.000000 0.310776 0.000000
0.002820 0.309680 0.000000
0.038291 0.308584 0.000000
0.073762 0.307488 0.000000
0.109234 0.306391 0.000000
0.144705 0.305295 0.000000
0.180176 0.304199 0.000000
0.215647 0.303103 0.000000
0.251118 0.302007 0.000000
0.286590 0.300910 0.000000
0.322061 0.299814 0.000000
0.357532 0.298718 0.000000
0.393003 0.297622 0.000000
0.428475 0.296525 0.000000
0.463946 0.295429 0.000000
0.499417 0.294333 0.000000
0.534375 0.293750 0.000000
0.568750 0.293750 0.000000
0.603125 0.293750 0.000000
0.637500 0.293750 0.000000
0.671875 0.293750 0.000000
0.706250 0.293750 0.000000
0.740625 0.293750 0.000000
0.775000 0.293750 0.000000
0.809375 0.293750 0.000000
0.843750 0.293750 0.000000
0.878125 0.293750 0.000000
0.912500 0.293750 0.000000
0.946875 0.293750 0.000000
0.981250 0.293750 0.000000
1.000000 0.293750 0.000000
1.000000 0.293750 0.000000
0.000000 0.342560 0.000000
0.000000 0.341464 0.000000
0.006508 0.340367 0.000000
0.041979 0.339271 0.000000
0.077450 0.338175 0.000000
0.112921 0.337079 0.000000
0.148393 0.335982 0.000000
0.183864 0.334886 0.000000
0.219335 0.333790 0.000000
0.254806 0.332694 0.000000
0.290277 0.331598 0.000000
0.325749 0.330501 0.000000
0.361220 0.329405 0.000000
0.396691 0.328309 0.000000
0.431250 0.328125 0.000000
0.465625 0.328125 0.000000
0.500000 0.328125 0.000000
0.534375 0.328125 0.000000
0.568750 0.328125 0.000000
0.603125 0.328125 0.000000
0.637500 0.328125 0.000000
0.671875 0.328125 0.000000
0.706250 0.328125 0.000000
0.740625 0.328125 0.000000
0.775000 0.328125 0.000000
0.809375 0.328125 0.000000
0.843750 0.328125 0.000000
0.878125 0.328125 0.000000
0.912500 0.328125 0.000000
0.946875 0.328125 0.000000
0.981250 0.328125 0.000000
1.000000 0.328125 0.000000
1.000000 0.328125 0.000000
0.000000 0.373247 0.000000
0.000000 0.372151 0.000000
0.010195 0.371055 0.000000
0.045667 0.369958 0.000000
0.081138 0.368862 0.000000
0.116609 0.367766 0.000000
0.152080 0.366670 0.000000
0.187552 0.365573 0.000000
0.223023 0.364477 0.000000
0.258494 0.363381 0.000000
0.293750 0.362500 0.000000
0.328125 0.362500 0.000000
0.362500 0.362500 0.000000
0.396875 0.362500 0.000000
0.431250 0.362500 0.000000
0.465625 0.362500 0.000000
0.500000 0.362500 0.000000
0.534375 0.362500 0.000000
0.568750 0.362500 0.000000
0.603125 0.362500 0.000000
0.637500 0.362500 0.000000
0.671875 0.362500 0.000000
0.706250 0.362500 0.000000
0.740625 0.362500 0.000000
0.775000 0.362500 0.000000
0.809375 0.362500 0.000000
0.843750 0.362500 0.000000
0.878125 0.362500 0.000000
0.912500 0.362500 0.000000
0.946875 0.362500 0.000000
0.981250 0.362500 0.000000
1.000000 0.362500 0.000000
1.000000 0.362500 0.000000
0.000000 0.403934 0.000000
0.000000 0.402838 0.000000
0.013883 0.401742 0.000000
0.049354 0.400646 0.000000
0.084826 0.399549 0.000000
0.120297 0.398453 0.000000
0.155768 0.397357 0.000000
0.190625 0.396875 0.000000
0.225000 0.396875 0.000000
0.259375 0.396875 0.000000
0.293750 0.396875 0.000000
0.328125 0.396875 0.000000
0.362500 0.396875 0.000000
0.396875 0.396875 0.000000
0.431250 0.396875 0.000000
0.465625 0.396875 0.000000
0.500000 0.396875 0.000000
0.534375 0.396875 0.000000
0.568750 0.396875 0.000000
0.603125 0.396875 0.000000
0.637500 0.396875 0.000000
0.671875 0.396875 0.000000
0.706250 0.396875 0.000000
0.740625 0.396875 0.000000
0.775000 0.396875 0.000000
0.809375 0.396875 0.000000
0.843750 0.396875 0.000000
0.878125 0.396875 0.000000
0.912500 0.396875 0.000000
0.946875 0.396875 0.000000
0.981250 0.396875 0.000000
1.000000 0.396875 0.000000
1.000000 0.397222 0.000000
0.000000 0.434621 0.000000
0.000000 0.433525 0.000000
0.017571 0.432429 0.000000
0.053042 0.431333 0.000000
0.087500 0.431250 0.000000
0.121875 0.431250 0.000000
0.156250 0.431250 0.000000
0.190625 0.431250 0.000000
0.225000 0.431250 0.000000
0.259375 0.431250 0.000000
0.293750 0.431250 0.000000
0.328125 0.431250 0.000000
0.362500 0.431250 0.000000
0.396875 0.431250 0.000000
0.431250 0.431250 0.000000
0.465625 0.431250 0.000000
0.500000 0.431250 0.000000
0.534375 0.431250 0.000000
0.568750 0.431250 0.000000
0.603125 0.431250 0.000000
0.637500 0.431250 0.000000
0.671875 0.431250 0.000000
0.706250 0.431250 0.000000
0.740625 0.431250 0.000000
0.775000 0.431250 0.000000
0.809375 0.431250 0.000000
0.843750 0.431250 0.000000
0.878125 0.431250 0.000000
0.912500 0.431250 0.000000
0.948100 0.431863 0.000000
0.983937 0.432593 0.000000
1.000000 0.433324 0.000000
1.000000 0.434055 0.000000
0.000000 0.465625 0.000000
0.000000 0.465625 0.000000
0.018750 0.465625 0.000000
0.053125 0.465625 0.000000
0.087500 0.465625 0.000000
0.121875 0.465625 0.000000
0.156250 0.465625 0.000000
0.190625 0.465625 0.000000
0.225000 0.465625 0.000000
0.259375 0.465625 0.000000
0.293750 0.465625 0.000000
0.328125 0.465625 0.000000
0.362500 0.465625 0.000000
0.396875 0.465625 0.000000
0.431250 0.465625 0.000000
0.465625 0.465625 0.000000
0.500000 0.465625 0.000000
0.534375 0.465625 0.000000
0.568750 0.465625 0.000000
0.603125 0.465625 0.000000
0.637500 0.465625 0.000000
0.671875 0.465625 0.000000
0.706250 0.465625 0.000000
0.740625 0.465625 0.000000
0.775000 0.465625 0.000000
0.809671 0.465773 0.000000
0.845507 0.466504 0.000000
0.881344 0.467234 0.000000
0.917181 0.467965 0.000000
0.953017 0.468696 0.000000
0.988854 0.469427 0.000000
1.000000 0.470158 0.000000
1.000000 0.470888 0.000000
0.000000 0.500000 0.000000
0.000000 0.500000 0.000000
0.018750 0.500000 0.000000
0.053125 0.500000 0.000000
0.087500 0.500000 0.000000
0.121875 0.500000 0.000000
0.156250 0.500000 0.000000
0.190625 0.500000 0.000000
0.225000 0.500000 0.000000
0.259375 0.500000 0.000000
0.293750 0.500000 0.000000
0.328125 0.500000 0.000000
0.362500 0.500000 0.000000
0.396875 0.500000 0.000000
0.431250 0.500000 0.000000
0.465625 0.500000 0.000000
0.500000 0.500000 0.000000
0.534375 0.500000 0.000000
0.568750 0.500000 0.000000
0.603125 0.500000 0.000000
0.637500 0.500000 0.000000
0.671875 0.500000 0.000000
0.707078 0.500414 0.000000
0.742914 0.501145 0.000000
0.778751 0.501875 0.000000
0.814588 0.502606 0.000000
0.850424 0.503337 0.000000
0.886261 0.504068 0.000000
0.922098 0.504799 0.000000
0.957934 0.505530 0.000000
0.993771 0.506260 0.000000
1.000000 0.506991 0.000000
1.000000 0.507722 0.000000
0.000000 0.534375 0.000000
0.000000 0.534375 0.000000
0.018750 0.534375 0.000000
0.053125 0.534375 0.000000
0.087500 0.534375 0.000000
0.121875 0.534375 0.000000
0.156250 0.534375 0.000000
0.190625 0.534375 0.000000
0.225000 0.534375 0.000000
0.259375 0.534375 0.000000
0.293750 0.534375 0.000000
0.328125 0.534375 0.000000
0.362500 0.534375 0.000000
0.396875 0.534375 0.000000
0.431250 0.534375 0.000000
0.465625 0.534375 0.000000
0.500000 0.534375 0.000000
0.534375 0.534375 0.000000
0.568750 0.534375 0.000000
0.604485 0.535055 0.000000
0.640321 0.535786 0.000000
0.676158 0.536517 0.000000
0.711995 0.537247 0.000000
0.747831 0.537978 0.000000
0.783668 0.538709 0.000000
0.819505 0.539440 0.000000
0.855341 0.540171 0.000000
0.891178 0.540901 0.000000
0.927014 0.541632 0.000000
0.962851 0.542363 0.000000
0.998688 0.543094 0.000000
1.000000 0.543825 0.000000
1.000000 0.544555 0.000000
0.000000 0.568750 0.000000
0.000000 0.568750 0.000000
0.018750 0.568750 0.000000
0.053125 0.568750 0.000000
0.087500 0.568750 0.000000
0.121875 0.568750 0.000000
0.156250 0.568750 0.000000
0.190625 0.568750 0.000000
0.225000 0.568750 0.000000
0.259375 0.568750 0.000000
0.293750 0.568750 0.000000
0.328125 0.568750 0.000000
0.362500 0.568750 0.000000
0.396875 0.568750 0.000000
0.431250 0.568750 0.000000
0.466055 0.568965 0.000000
0.501892 0.569696 0.000000
0.537729 0.570427 0.000000
0.573565 0.571158 0.000000
0.609402 0.571888 0.000000
0.645239 0.572619 0.000000
0.681075 0.573350 0.000000
0.716912 0.574081 0.000000
0.752748 0.574812 0.000000
0.788585 0.575543 0.000000
0.824422 0.576273 0.000000
0.860258 0.577004 0.000000
0.896095 0.577735 0.000000
0.931932 0.578466 0.000000
0.967768 0.579197 0.000000
1.000000 0.579927 0.000000
1.000000 0.580658 0.000000
1.000000 0.581389 0.000000
0.000000 0.603125 0.000000
0.000000 0.603125 0.000000
0.018750 0.603125 0.000000
0.053125 0.603125 0.000000
0.087500 0.603125 0.000000
0.121875 0.603125 0.000000
0.156250 0.603125 0.000000
0.190625 0.603125 0.000000
0.225000 0.603125 0.000000
0.259375 0.603125 0.000000
0.293750 0.603125 0.000000
0.328125 0.603125 0.000000
0.363463 0.603606 0.000000
0.399299 0.604337 0.000000
0.435136 0.605068 0.000000
0.470972 0.605799 0.000000
0.506809 0.606529 0.000000
0.542646 0.607260 0.000000
0.578482 0.607991 0.000000
0.614319 0.608722 0.000000
0.650155 0.609453 0.000000
0.685992 0.610184 0.000000
0.721829 0.610914 0.000000
0.757665 0.611645 0.000000
0.793502 0.612376 0.000000
0.829339 0.613107 0.000000
0.865175 0.613838 0.000000
0.901012 0.614568 0.000000
0.936848 0.615299 0.000000
0.972685 0.616030 0.000000
1.000000 0.616761 0.000000
1.000000 0.617492 0.000000
1.000000 0.618223 0.000000
0.000000 0.637500 0.000000
0.000000 0.637500 0.000000
0.018750 0.637500 0.000000
0.053125 0.637500 0.000000
0.087500 0.637500 0.000000
0.121875 0.637500 0.000000
0.156250 0.637500 0.000000
0.190625 0.637500 0.000000
0.225033 0.637517 0.000000
0.260870 0.638247 0.000000
0.296706 0.638978 0.000000
0.332543 0.639709 0.000000
0.368379 0.640440 0.000000
0.404216 0.641171 0.000000
0.440053 0.641901 0.000000
0.475889 0.642632 0.000000
0.511726 0.643363 0.000000
0.547563 0.644094 0.000000
0.583399 0.644825 0.000000
0.619236 0.645555 0.000000
0.655072 0.646286 0.000000
0.690909 0.647017 0.000000
0.726746 0.647748 0.000000
0.762582 0.648479 0.000000
0.798419 0.649209 0.000000
0.834256 0.649940 0.000000
0.870092 0.650671 0.000000
0.905929 0.651402 0.000000
0.941766 0.652133 0.000000
0.977602 0.652864 0.000000
1.000000 0.653594 0.000000
1.000000 0.654325 0.000000
1.000000 0.655056 0.000000
0.000000 0.671875 0.000000
0.000000 0.671875 0.000000
0.018750 0.671875 0.000000
0.053125 0.671875 0.000000
0.087500 0.671875 0.000000
0.122440 0.672158 0.000000
0.158277 0.672888 0.000000
0.194113 0.673619 0.000000
0.229950 0.674350 0.000000
0.265787 0.675081 0.000000
0.301623 0.675812 0.000000
0.337460 0.676542 0.000000
0.373297 0.677273 0.000000
0.409133 0.678004 0.000000
0.444970 0.678735 0.000000
0.480806 0.679466 0.000000
0.516643 0.680197 0.000000
0.552480 0.680927 0.000000
0.588316 0.681658 0.000000
0.624153 0.682389 0.000000
0.659990 0.683120 0.000000
0.695826 0.683851 0.000000
0.731663 0.684581 0.000000
0.767499 0.685312 0.000000
0.803336 0.686043 0.000000
0.839173 0.686774 0.000000
0.875009 0.687505 0.000000
0.910846 0.688235 0.000000
0.946682 0.688966 0.000000
0.982519 0.689697 0.000000
1.000000 0.690428 0.000000
1.000000 0.691159 0.000000
1.000000 0.691889 0.000000
0.000000 0.706250 0.000000
0.000000 0.706250 0.000000
0.019847 0.706799 0.000000
0.055684 0.707529 0.000000
0.091520 0.708260 0.000000
0.127357 0.708991 0.000000
0.163194 0.709722 0.000000
0.199030 0.710453 0.000000
0.234867 0.711183 0.000000
0.270704 0.711914 0.000000
0.306540 0.712645 0.000000
0.342377 0.713376 0.000000
0.378213 0.714107 0.000000
0.414050 0.714838 0.000000
0.449887 0.715568 0.000000
0.485723 0.716299 0.000000
0.521560 0.717030 0.000000
0.557397 0.717761 0.000000
0.593233 0.718492 0.000000
0.629070 0.719222 0.000000
0.664907 0.719953 0.000000
0.700743 0.720684 0.000000
0.736580 0.721415 0.000000
0.772416 0.722146 0.000000
0.808253 0.722877 0.000000
0.844090 0.723607 0.000000
0.879926 0.724338 0.000000
0.915763 0.725069 0.000000
0.951599 0.725800 0.000000
0.987436 0.726531 0.000000
1.000000 0.727261 0.000000
1.000000 0.727992 0.000000
1.000000 0.728723 0.000000
0.000000 0.742171 0.000000
0.000000 0.742901 0.000000
0.024764 0.743632 0.000000
0.060601 0.744363 0.000000
0.096437 0.745094 0.000000
0.132274 0.745825 0.000000
0.168111 0.746555 0.000000
0.203947 0.747286 0.000000
0.239784 0.748017 0.000000
0.275621 0.748748 0.000000
0.311457 0.749479 0.000000
0.347294 0.750209 0.000000
0.383131 0.750940 0.000000
0.418967 0.751671 0.000000
0.454804 0.752402 0.000000
0.490640 0.753133 0.000000
0.526477 0.753864 0.000000
0.562314 0.754594 0.000000
0.598150 0.755325 0.000000
0.633987 0.756056 0.000000
0.669824 0.756787 0.000000
0.705660 0.757518 0.000000
0.741497 0.758248 0.000000
0.777333 0.758979 0.000000
0.813170 0.759710 0.000000
0.849007 0.760441 0.000000
0.884843 0.761172 0.000000
0.920680 0.761902 0.000000
0.956516 0.762633 0.000000
0.992353 0.763364 0.000000
1.000000 0.764095 0.000000
1.000000 0.764826 0.000000
1.000000 0.765557 0.000000
0.000000 0.779004 0.000000
0.000000 0.779735 0.000000
0.029681 0.780466 0.000000
0.065518 0.781196 0.000000
0.101355 0.781927 0.000000
0.137191 0.782658 0.000000
0.173028 0.783389 0.000000
0.208864 0.784120 0.000000
0.244701 0.784851 0.000000
0.280538 0.785581 0.000000
0.316374 0.786312 0.000000
0.352211 0.787043 0.000000
0.388047 0.787774 0.000000
0.423884 0.788505 0.000000
0.459721 0.789235 0.000000
0.495557 0.789966 0.000000
0.531394 0.790697 0.000000
0.567231 0.791428 0.000000
0.603067 0.792159 0.000000
0.638904 0.792889 0.000000
0.674740 0.793620 0.000000
0.710577 0.794351 0.000000
0.746414 0.795082 0.000000
0.782250 0.795813 0.000000
0.818087 0.796543 0.000000
0.853924 0.797274 0.000000
0.889760 0.798005 0.000000
0.925597 0.798736 0.000000
0.961434 0.799467 0.000000
0.997270 0.800198 0.000000
1.000000 0.800928 0.000000
1.000000 0.801659 0.000000
1.000000 0.802390 0.000000
0.000000 0.815837 0.000000
0.000000 0.816568 0.000000
0.034598 0.817299 0.000000
0.070435 0.818030 0.000000
0.106271 0.818761 0.000000
0.142108 0.819492 0.000000
0.177945 0.820222 0.000000
0.213781 0.820953 0.000000
0.249618 0.821684 0.000000
0.285455 0.822415 0.000000
0.321291 0.823146 0.000000
0.357128 0.823876 0.000000
0.392965 0.824607 0.000000
0.428801 0.825338 0.000000
0.464638 0.826069 0.000000
0.500474 0.826800 0.000000
0.536311 0.827530 0.000000
0.572148 0.828261 0.000000
0.607984 0.828992 0.000000
0.643821 0.829723 0.000000
0.679657 0.830454 0.000000
0.715494 0.831185 0.000000
0.751331 0.831915 0.000000
0.787167 0.832646 0.000000
0.823004 0.833377 0.000000
0.858841 0.834108 0.000000
0.894677 0.834839 0.000000
0.930514 0.835569 0.000000
0.966351 0.836300 0.000000
1.000000 0.837031 0.000000
1.000000 0.837762 0.000000
1.000000 0.838493 0.000000
1.000000 0.839224 0.000000
0.000000 0.852671 0.000000
0.003679 0.853402 0.000000
0.039515 0.854133 0.000000
0.075352 0.854863 0.000000
0.111188 0.855594 0.000000
0.147025 0.856325 0.000000
0.182862 0.857056 0.000000
0.218698 0.857787 0.000000
0.254535 0.858518 0.000000
0.290372 0.859248 0.000000
0.326208 0.859979 0.000000
0.362045 0.860710 0.000000
0.397881 0.861441 0.000000
0.433718 0.862172 0.000000
0.469555 0.862902 0.000000
0.505391 0.863633 0.000000
0.541228 0.864364 0.000000
0.577065 0.865095 0.000000
0.612901 0.865826 0.000000
0.648738 0.866556 0.000000
0.684575 0.867287 0.000000
0.720411 0.868018 0.000000
0.756248 0.868749 0.000000
0.792084 0.869480 0.000000
0.827921 0.870210 0.000000
