app/src/main/assets/luts/builtin/builtin_kodak_portra_400_33.cube
TITLE "builtin_kodak_portra_400_33.cube"
LUT_3D_SIZE 33
# Built-in fallback LUT for OMaster
DOMAIN_MIN 0.0 0.0 0.0
DOMAIN_MAX 1.0 1.0 1.0
0.044500 0.027840 0.000000
0.083533 0.027840 0.000000
0.118869 0.027840 0.000000
0.152932 0.027840 0.000000
0.186194 0.027840 0.000000
0.218873 0.027840 0.000000
0.251094 0.027840 0.000000
0.282939 0.027840 0.000000
0.314467 0.027840 0.000000
0.345719 0.027840 0.000000
0.376728 0.027840 0.000000
0.407521 0.027840 0.000000
0.438118 0.027840 0.000000
0.468537 0.027840 0.000000
0.498793 0.027840 0.000000
0.528897 0.027840 0.000000
0.558861 0.027840 0.000000
0.588694 0.027840 0.000000
0.618405 0.027840 0.000000
0.648000 0.027840 0.000000
0.677487 0.027840 0.000000
0.706870 0.027840 0.000000
0.736155 0.027840 0.000000
0.764830 0.027840 0.000000
0.792479 0.027840 0.000000
0.820047 0.027840 0.000000
0.847537 0.027840 0.000000
0.874954 0.027840 0.000000
0.902300 0.027840 0.000000
0.929578 0.027840 0.000000
0.956790 0.027840 0.000000
0.983938 0.027840 0.000000
1.000000 0.027840 0.000000
0.044500 0.061821 0.000000
0.083533 0.061821 0.000000
0.118869 0.061821 0.000000
0.152932 0.061821 0.000000
0.186194 0.061821 0.000000
0.218873 0.061821 0.000000
0.251094 0.061821 0.000000
0.282939 0.061821 0.000000
0.314467 0.061821 0.000000
0.345719 0.061821 0.000000
0.376728 0.061821 0.000000
0.407521 0.061821 0.000000
0.438118 0.061821 0.000000
0.468537 0.061821 0.000000
0.498793 0.061821 0.000000
0.528897 0.061821 0.000000
0.558861 0.061821 0.000000
0.588694 0.061821 0.000000
0.618405 0.061821 0.000000
0.648000 0.061821 0.000000
0.677487 0.061821 0.000000
0.706870 0.061821 0.000000
0.736155 0.061821 0.000000
0.764830 0.061821 0.000000
0.792479 0.061821 0.000000
0.820047 0.061821 0.000000
0.847537 0.061821 0.000000
0.874954 0.061821 0.000000
0.902300 0.061821 0.000000
0.929578 0.061821 0.000000
0.956790 0.061821 0.000000
0.983938 0.061821 0.000000
1.000000 0.061821 0.000000
0.044500 0.094403 0.000000
0.083533 0.094403 0.000000
0.118869 0.094403 0.000000
0.152932 0.094403 0.000000
0.186194 0.094403 0.000000
0.218873 0.094403 0.000000
0.251094 0.094403 0.000000
0.282939 0.094403 0.000000
0.314467 0.094403 0.000000
0.345719 0.094403 0.000000
0.376728 0.094403 0.000000
0.407521 0.094403 0.000000
0.438118 0.094403 0.000000
0.468537 0.094403 0.000000
0.498793 0.094403 0.000000
0.528897 0.094403 0.000000
0.558861 0.094403 0.000000
0.588694 0.094403 0.000000
0.618405 0.094403 0.000000
0.648000 0.094403 0.000000
0.677487 0.094403 0.000000
0.706870 0.094403 0.000000
0.736155 0.094403 0.000000
0.764830 0.094403 0.000000
0.792479 0.094403 0.000000
0.820047 0.094403 0.000000
0.847537 0.094403 0.000000
0.874954 0.094403 0.000000
0.902300 0.094403 0.000000
0.929578 0.094403 0.000000
0.956790 0.094403 0.000000
0.983938 0.094403 0.000000
1.000000 0.094403 0.000000
0.044500 0.126477 0.000000
0.083533 0.126477 0.000000
0.118869 0.126477 0.000000
0.152932 0.126477 0.000000
0.186194 0.126477 0.000000
0.218873 0.126477 0.000000
0.251094 0.126477 0.000000
0.282939 0.126477 0.000000
0.314467 0.126477 0.000000
0.345719 0.126477 0.000000
0.376728 0.126477 0.000000
0.407521 0.126477 0.000000
0.438118 0.126477 0.000000
0.468537 0.126477 0.000000
0.498793 0.126477 0.000000
0.528897 0.126477 0.000000
0.558861 0.126477 0.000000
0.588694 0.126477 0.000000
0.618405 0.126477 0.000000
0.648000 0.126477 0.000000
0.677487 0.126477 0.000000
0.706870 0.126477 0.000000
0.736155 0.126477 0.000000
0.764830 0.126477 0.000000
0.792479 0.126477 0.000000
0.820047 0.126477 0.000000
0.847537 0.126477 0.000000
0.874954 0.126477 0.000000
0.902300 0.126477 0.000000
0.929578 0.126477 0.000000
0.956790 0.126477 0.000000
0.983938 0.126477 0.000000
1.000000 0.126477 0.000000
0.044500 0.158225 0.000000
0.083533 0.158225 0.000000
0.118869 0.158225 0.000000
0.152932 0.158225 0.000000
0.186194 0.158225 0.000000
0.218873 0.158225 0.000000
0.251094 0.158225 0.000000
0.282939 0.158225 0.000000
0.314467 0.158225 0.000000
0.345719 0.158225 0.000000
0.376728 0.158225 0.000000
0.407521 0.158225 0.000000
0.438118 0.158225 0.000000
0.468537 0.158225 0.000000
0.498793 0.158225 0.000000
0.528897 0.158225 0.000000
0.558861 0.158225 0.000000
0.588694 0.158225 0.000000
0.618405 0.158225 0.000000
0.648000 0.158225 0.000000
0.677487 0.158225 0.000000
0.706870 0.158225 0.000000
0.736155 0.158225 0.000000
0.764830 0.158225 0.000000
0.792479 0.158225 0.000000
0.820047 0.158225 0.000000
0.847537 0.158225 0.000000
0.874954 0.158225 0.000000
0.902300 0.158225 0.000000
0.929578 0.158225 0.000000
0.956790 0.158225 0.000000
0.983938 0.158225 0.000000
1.000000 0.158225 0.000000
0.044500 0.189734 0.000000
0.083533 0.189734 0.000000
0.118869 0.189734 0.000000
0.152932 0.189734 0.000000
0.186194 0.189734 0.000000
0.218873 0.189734 0.000000
0.251094 0.189734 0.000000
0.282939 0.189734 0.000000
0.314467 0.189734 0.000000
0.345719 0.189734 0.000000
0.376728 0.189734 0.000000
0.407521 0.189734 0.000000
0.438118 0.189734 0.000000
0.468537 0.189734 0.000000
0.498793 0.189734 0.000000
0.528897 0.189734 0.000000
0.558861 0.189734 0.000000
0.588694 0.189734 0.000000
0.618405 0.189734 0.000000
0.648000 0.189734 0.000000
0.677487 0.189734 0.000000
0.706870 0.189734 0.000000
0.736155 0.189734 0.000000
0.764830 0.189734 0.000000
0.792479 0.189734 0.000000
0.820047 0.189734 0.000000
0.847537 0.189734 0.000000
0.874954 0.189734 0.000000
0.902300 0.189734 0.000000
0.929578 0.189734 0.000000
0.956790 0.189734 0.000000
0.983938 0.189734 0.000000
1.000000 0.189734 0.000000
0.044500 0.221053 0.000000
0.083533 0.221053 0.000000
0.118869 0.221053 0.000000
0.152932 0.221053 0.000000
0.186194 0.221053 0.000000
0.218873 0.221053 0.000000
0.251094 0.221053 0.000000
0.282939 0.221053 0.000000
0.314467 0.221053 0.000000
0.345719 0.221053 0.000000
0.376728 0.221053 0.000000
0.407521 0.221053 0.000000
0.438118 0.221053 0.000000
0.468537 0.221053 0.000000
0.498793 0.221053 0.000000
0.528897 0.221053 0.000000
0.558861 0.221053 0.000000
0.588694 0.221053 0.000000
0.618405 0.221053 0.000000
0.648000 0.221053 0.000000
0.677487 0.221053 0.000000
0.706870 0.221053 0.000000
0.736155 0.221053 0.000000
0.764830 0.221053 0.000000
0.792479 0.221053 0.000000
0.820047 0.221053 0.000000
0.847537 0.221053 0.000000
0.874954 0.221053 0.000000
0.902300 0.221053 0.000000
0.929578 0.221053 0.000000
0.956790 0.221053 0.000000
0.983938 0.221053 0.000000
1.000000 0.221053 0.000000
0.044500 0.252216 0.000000
0.083533 0.252216 0.000000
0.118869 0.252216 0.000000
0.152932 0.252216 0.000000
0.186194 0.252216 0.000000
0.218873 0.252216 0.000000
0.251094 0.252216 0.000000
0.282939 0.252216 0.000000
0.314467 0.252216 0.000000
0.345719 0.252216 0.000000
0.376728 0.252216 0.000000
0.407521 0.252216 0.000000
0.438118 0.252216 0.000000
0.468537 0.252216 0.000000
0.498793 0.252216 0.000000
0.528897 0.252216 0.000000
0.558861 0.252216 0.000000
0.588694 0.252216 0.000000
0.618405 0.252216 0.000000
0.648000 0.252216 0.000000
0.677487 0.252216 0.000000
0.706870 0.252216 0.000000
0.736155 0.252216 0.000000
0.764830 0.252216 0.000000
0.792479 0.252216 0.000000
0.820047 0.252216 0.000000
0.847537 0.252216 0.000000
0.874954 0.252216 0.000000
0.902300 0.252216 0.000000
0.929578 0.252216 0.000000
0.956790 0.252216 0.000000
0.983938 0.252216 0.000000
1.000000 0.252216 0.000000
0.044500 0.283244 0.000000
0.083533 0.283244 0.000000
0.118869 0.283244 0.000000
0.152932 0.283244 0.000000
0.186194 0.283244 0.000000
0.218873 0.283244 0.000000
0.251094 0.283244 0.000000
0.282939 0.283244 0.000000
0.314467 0.283244 0.000000
0.345719 0.283244 0.000000
0.376728 0.283244 0.000000
0.407521 0.283244 0.000000
0.438118 0.283244 0.000000
0.468537 0.283244 0.000000
0.498793 0.283244 0.000000
0.528897 0.283244 0.000000
0.558861 0.283244 0.000000
0.588694 0.283244 0.000000
0.618405 0.283244 0.000000
0.648000 0.283244 0.000000
0.677487 0.283244 0.000000
0.706870 0.283244 0.000000
0.736155 0.283244 0.000000
0.764830 0.283244 0.000000
0.792479 0.283244 0.000000
0.820047 0.283244 0.000000
0.847537 0.283244 0.000000
0.874954 0.283244 0.000000
0.902300 0.283244 0.000000
0.929578 0.283244 0.000000
0.956790 0.283244 0.000000
0.983938 0.283244 0.000000
1.000000 0.283244 0.000000
0.044500 0.314156 0.000000
0.083533 0.314156 0.000000
0.118869 0.314156 0.000000
0.152932 0.314156 0.000000
0.186194 0.314156 0.000000
0.218873 0.314156 0.000000
0.251094 0.314156 0.000000
0.282939 0.314156 0.000000
0.314467 0.314156 0.000000
0.345719 0.314156 0.000000
0.376728 0.314156 0.000000
0.407521 0.314156 0.000000
0.438118 0.314156 0.000000
0.468537 0.314156 0.000000
0.498793 0.314156 0.000000
0.528897 0.314156 0.000000
0.558861 0.314156 0.000000
0.588694 0.314156 0.000000
0.618405 0.314156 0.000000
0.648000 0.314156 0.000000
0.677487 0.314156 0.000000
0.706870 0.314156 0.000000
0.736155 0.314156 0.000000
0.764830 0.314156 0.000000
0.792479 0.314156 0.000000
0.820047 0.314156 0.000000
0.847537 0.314156 0.000000
0.874954 0.314156 0.000000
0.902300 0.314156 0.000000
0.929578 0.314156 0.000000
0.956790 0.314156 0.000000
0.983938 0.314156 0.000000
1.000000 0.314156 0.000000
0.044500 0.344965 0.000000
0.083533 0.344965 0.000000
0.118869 0.344965 0.000000
0.152932 0.344965 0.000000
0.186194 0.344965 0.000000
0.218873 0.344965 0.000000
0.251094 0.344965 0.000000
0.282939 0.344965 0.000000
0.314467 0.344965 0.000000
0.345719 0.344965 0.000000
0.376728 0.344965 0.000000
0.407521 0.344965 0.000000
0.438118 0.344965 0.000000
0.468537 0.344965 0.000000
0.498793 0.344965 0.000000
0.528897 0.344965 0.000000
0.558861 0.344965 0.000000
0.588694 0.344965 0.000000
0.618405 0.344965 0.000000
0.648000 0.344965 0.000000
0.677487 0.344965 0.000000
0.706870 0.344965 0.000000
0.736155 0.344965 0.000000
0.764830 0.344965 0.000000
0.792479 0.344965 0.000000
0.820047 0.344965 0.000000
0.847537 0.344965 0.000000
0.874954 0.344965 0.000000
0.902300 0.344965 0.000000
0.929578 0.344965 0.000000
0.956790 0.344965 0.000000
0.983938 0.344965 0.000000
1.000000 0.344965 0.000000
0.044500 0.375682 0.000000
0.083533 0.375682 0.000000
0.118869 0.375682 0.000000
0.152932 0.375682 0.000000
0.186194 0.375682 0.000000
0.218873 0.375682 0.000000
0.251094 0.375682 0.000000
0.282939 0.375682 0.000000
0.314467 0.375682 0.000000
0.345719 0.375682 0.000000
0.376728 0.375682 0.000000
0.407521 0.375682 0.000000
0.438118 0.375682 0.000000
0.468537 0.375682 0.000000
0.498793 0.375682 0.000000
0.528897 0.375682 0.000000
0.558861 0.375682 0.000000
0.588694 0.375682 0.000000
0.618405 0.375682 0.000000
0.648000 0.375682 0.000000
0.677487 0.375682 0.000000
0.706870 0.375682 0.000000
0.736155 0.375682 0.000000
0.764830 0.375682 0.000000
0.792479 0.375682 0.000000
0.820047 0.375682 0.000000
0.847537 0.375682 0.000000
0.874954 0.375682 0.000000
0.902300 0.375682 0.000000
0.929578 0.375682 0.000000
0.956790 0.375682 0.000000
0.983938 0.375682 0.000000
1.000000 0.375682 0.000000
0.044500 0.406314 0.000000
0.083533 0.406314 0.000000
0.118869 0.406314 0.000000
0.152932 0.406314 0.000000
0.186194 0.406314 0.000000
0.218873 0.406314 0.000000
0.251094 0.406314 0.000000
0.282939 0.406314 0.000000
0.314467 0.406314 0.000000
0.345719 0.406314 0.000000
0.376728 0.406314 0.000000
0.407521 0.406314 0.000000
0.438118 0.406314 0.000000
0.468537 0.406314 0.000000
0.498793 0.406314 0.000000
0.528897 0.406314 0.000000
0.558861 0.406314 0.000000
0.588694 0.406314 0.000000
0.618405 0.406314 0.000000
0.648000 0.406314 0.000000
0.677487 0.406314 0.000000
0.706870 0.406314 0.000000
0.736155 0.406314 0.000000
0.764830 0.406314 0.000000
0.792479 0.406314 0.000000
0.820047 0.406314 0.000000
0.847537 0.406314 0.000000
0.874954 0.406314 0.000000
0.902300 0.406314 0.000000
0.929578 0.406314 0.000000
0.956790 0.406314 0.000000
0.983938 0.406314 0.000000
1.000000 0.406314 0.000000
0.044500 0.436870 0.000000
0.083533 0.436870 0.000000
0.118869 0.436870 0.000000
0.152932 0.436870 0.000000
0.186194 0.436870 0.000000
0.218873 0.436870 0.000000
0.251094 0.436870 0.000000
0.282939 0.436870 0.000000
0.314467 0.436870 0.000000
0.345719 0.436870 0.000000
0.376728 0.436870 0.000000
0.407521 0.436870 0.000000
0.438118 0.436870 0.000000
0.468537 0.436870 0.000000
0.498793 0.436870 0.000000
0.528897 0.436870 0.000000
0.558861 0.436870 0.000000
0.588694 0.436870 0.000000
0.618405 0.436870 0.000000
0.648000 0.436870 0.000000
0.677487 0.436870 0.000000
0.706870 0.436870 0.000000
0.736155 0.436870 0.000000
0.764830 0.436870 0.000000
0.792479 0.436870 0.000000
0.820047 0.436870 0.000000
0.847537 0.436870 0.000000
0.874954 0.436870 0.000000
0.902300 0.436870 0.000000
0.929578 0.436870 0.000000
0.956790 0.436870 0.000000
0.983938 0.436870 0.000000
1.000000 0.436870 0.000000
0.044500 0.467356 0.000000
0.083533 0.467356 0.000000
0.118869 0.467356 0.000000
0.152932 0.467356 0.000000
0.186194 0.467356 0.000000
0.218873 0.467356 0.000000
0.251094 0.467356 0.000000
0.282939 0.467356 0.000000
0.314467 0.467356 0.000000
0.345719 0.467356 0.000000
0.376728 0.467356 0.000000
0.407521 0.467356 0.000000
0.438118 0.467356 0.000000
0.468537 0.467356 0.000000
0.498793 0.467356 0.000000
0.528897 0.467356 0.000000
0.558861 0.467356 0.000000
0.588694 0.467356 0.000000
0.618405 0.467356 0.000000
0.648000 0.467356 0.000000
0.677487 0.467356 0.000000
0.706870 0.467356 0.000000
0.736155 0.467356 0.000000
0.764830 0.467356 0.000000
0.792479 0.467356 0.000000
0.820047 0.467356 0.000000
0.847537 0.467356 0.000000
0.874954 0.467356 0.000000
0.902300 0.467356 0.000000
0.929578 0.467356 0.000000
0.956790 0.467356 0.000000
0.983938 0.467356 0.000000
1.000000 0.467356 0.000000
0.044500 0.497776 0.000000
0.083533 0.497776 0.000000
0.118869 0.497776 0.000000
0.152932 0.497776 0.000000
0.186194 0.497776 0.000000
0.218873 0.497776 0.000000
0.251094 0.497776 0.000000
0.282939 0.497776 0.000000
0.314467 0.497776 0.000000
0.345719 0.497776 0.000000
0.376728 0.497776 0.000000
0.407521 0.497776 0.000000
0.438118 0.497776 0.000000
0.468537 0.497776 0.000000
0.498793 0.497776 0.000000
0.528897 0.497776 0.000000
0.558861 0.497776 0.000000
0.588694 0.497776 0.000000
0.618405 0.497776 0.000000
0.648000 0.497776 0.000000
0.677487 0.497776 0.000000
0.706870 0.497776 0.000000
0.736155 0.497776 0.000000
0.764830 0.497776 0.000000
0.792479 0.497776 0.000000
0.820047 0.497776 0.000000
0.847537 0.497776 0.000000
0.874954 0.497776 0.000000
0.902300 0.497776 0.000000
0.929578 0.497776 0.000000
0.956790 0.497776 0.000000
0.983938 0.497776 0.000000
1.000000 0.497776 0.000000
0.044500 0.528136 0.000000
0.083533 0.528136 0.000000
0.118869 0.528136 0.000000
0.152932 0.528136 0.000000
0.186194 0.528136 0.000000
0.218873 0.528136 0.000000
0.251094 0.528136 0.000000
0.282939 0.528136 0.000000
0.314467 0.528136 0.000000
0.345719 0.528136 0.000000
0.376728 0.528136 0.000000
0.407521 0.528136 0.000000
0.438118 0.528136 0.000000
0.468537 0.528136 0.000000
0.498793 0.528136 0.000000
0.528897 0.528136 0.000000
0.558861 0.528136 0.000000
0.588694 0.528136 0.000000
0.618405 0.528136 0.000000
0.648000 0.528136 0.000000
0.677487 0.528136 0.000000
0.706870 0.528136 0.000000
0.736155 0.528136 0.000000
0.764830 0.528136 0.000000
0.792479 0.528136 0.000000
0.820047 0.528136 0.000000
0.847537 0.528136 0.000000
0.874954 0.528136 0.000000
0.902300 0.528136 0.000000
0.929578 0.528136 0.000000
0.956790 0.528136 0.000000
0.983938 0.528136 0.000000
1.000000 0.528136 0.000000
0.044500 0.558439 0.000000
0.083533 0.558439 0.000000
0.118869 0.558439 0.000000
0.152932 0.558439 0.000000
0.186194 0.558439 0.000000
0.218873 0.558439 0.000000
0.251094 0.558439 0.000000
0.282939 0.558439 0.000000
0.314467 0.558439 0.000000
0.345719 0.558439 0.000000
0.376728 0.558439 0.000000
0.407521 0.558439 0.000000
0.438118 0.558439 0.000000
0.468537 0.558439 0.000000
0.498793 0.558439 0.000000
0.528897 0.558439 0.000000
0.558861 0.558439 0.000000
0.588694 0.558439 0.000000
0.618405 0.558439 0.000000
0.648000 0.558439 0.000000
0.677487 0.558439 0.000000
0.706870 0.558439 0.000000
0.736155 0.558439 0.000000
0.764830 0.558439 0.000000
0.792479 0.558439 0.000000
0.820047 0.558439 0.000000
0.847537 0.558439 0.000000
0.874954 0.558439 0.000000
0.902300 0.558439 0.000000
0.929578 0.558439 0.000000
0.956790 0.558439 0.000000
0.983938 0.558439 0.000000
1.000000 0.558439 0.000000
0.044500 0.588688 0.000000
0.083533 0.588688 0.000000
0.118869 0.588688 0.000000
0.152932 0.588688 0.000000
0.186194 0.588688 0.000000
0.218873 0.588688 0.000000
0.251094 0.588688 0.000000
0.282939 0.588688 0.000000
0.314467 0.588688 0.000000
0.345719 0.588688 0.000000
0.376728 0.588688 0.000000
0.407521 0.588688 0.000000
0.438118 0.588688 0.000000
0.468537 0.588688 0.000000
0.498793 0.588688 0.000000
0.528897 0.588688 0.000000
0.558861 0.588688 0.000000
0.588694 0.588688 0.000000
0.618405 0.588688 0.000000
0.648000 0.588688 0.000000
0.677487 0.588688 0.000000
0.706870 0.588688 0.000000
0.736155 0.588688 0.000000
0.764830 0.588688 0.000000
0.792479 0.588688 0.000000
0.820047 0.588688 0.000000
0.847537 0.588688 0.000000
0.874954 0.588688 0.000000
0.902300 0.588688 0.000000
0.929578 0.588688 0.000000
0.956790 0.588688 0.000000
0.983938 0.588688 0.000000
1.000000 0.588688 0.000000
0.044500 0.618886 0.000000
0.083533 0.618886 0.000000
0.118869 0.618886 0.000000
0.152932 0.618886 0.000000
0.186194 0.618886 0.000000
0.218873 0.618886 0.000000
0.251094 0.618886 0.000000
0.282939 0.618886 0.000000
0.314467 0.618886 0.000000
0.345719 0.618886 0.000000
0.376728 0.618886 0.000000
0.407521 0.618886 0.000000
0.438118 0.618886 0.000000
0.468537 0.618886 0.000000
0.498793 0.618886 0.000000
0.528897 0.618886 0.000000
0.558861 0.618886 0.000000
0.588694 0.618886 0.000000
0.618405 0.618886 0.000000
0.648000 0.618886 0.000000
0.677487 0.618886 0.000000
0.706870 0.618886 0.000000
0.736155 0.618886 0.000000
0.764830 0.618886 0.000000
0.792479 0.618886 0.000000
0.820047 0.618886 0.000000
0.847537 0.618886 0.000000
0.874954 0.618886 0.000000
0.902300 0.618886 0.000000
0.929578 0.618886 0.000000
0.956790 0.618886 0.000000
0.983938 0.618886 0.000000
1.000000 0.618886 0.000000
0.044500 0.649037 0.000000
0.083533 0.649037 0.000000
0.118869 0.649037 0.000000
0.152932 0.649037 0.000000
0.186194 0.649037 0.000000
0.218873 0.649037 0.000000
0.251094 0.649037 0.000000
0.282939 0.649037 0.000000
0.314467 0.649037 0.000000
0.345719 0.649037 0.000000
0.376728 0.649037 0.000000
0.407521 0.649037 0.000000
0.438118 0.649037 0.000000
0.468537 0.649037 0.000000
0.498793 0.649037 0.000000
0.528897 0.649037 0.000000
0.558861 0.649037 0.000000
0.588694 0.649037 0.000000
0.618405 0.649037 0.000000
0.648000 0.649037 0.000000
0.677487 0.649037 0.000000
0.706870 0.649037 0.000000
0.736155 0.649037 0.000000
0.764830 0.649037 0.000000
0.792479 0.649037 0.000000
0.820047 0.649037 0.000000
0.847537 0.649037 0.000000
0.874954 0.649037 0.000000
0.902300 0.649037 0.000000
0.929578 0.649037 0.000000
0.956790 0.649037 0.000000
0.983938 0.649037 0.000000
1.000000 0.649037 0.000000
0.044500 0.679143 0.000000
0.083533 0.679143 0.000000
0.118869 0.679143 0.000000
0.152932 0.679143 0.000000
0.186194 0.679143 0.000000
0.218873 0.679143 0.000000
0.251094 0.679143 0.000000
0.282939 0.679143 0.000000
0.314467 0.679143 0.000000
0.345719 0.679143 0.000000
0.376728 0.679143 0.000000
0.407521 0.679143 0.000000
0.438118 0.679143 0.000000
0.468537 0.679143 0.000000
0.498793 0.679143 0.000000
0.528897 0.679143 0.000000
0.558861 0.679143 0.000000
0.588694 0.679143 0.000000
0.618405 0.679143 0.000000
0.648000 0.679143 0.000000
0.677487 0.679143 0.000000
0.706870 0.679143 0.000000
0.736155 0.679143 0.000000
0.764830 0.679143 0.000000
0.792479 0.679143 0.000000
0.820047 0.679143 0.000000
0.847537 0.679143 0.000000
0.874954 0.679143 0.000000
0.902300 0.679143 0.000000
0.929578 0.679143 0.000000
0.956790 0.679143 0.000000
0.983938 0.679143 0.000000
1.000000 0.679143 0.000000
0.044500 0.709206 0.000000
0.083533 0.709206 0.000000
0.118869 0.709206 0.000000
0.152932 0.709206 0.000000
0.186194 0.709206 0.000000
0.218873 0.709206 0.000000
0.251094 0.709206 0.000000
0.282939 0.709206 0.000000
0.314467 0.709206 0.000000
0.345719 0.709206 0.000000
0.376728 0.709206 0.000000
0.407521 0.709206 0.000000
0.438118 0.709206 0.000000
0.468537 0.709206 0.000000
0.498793 0.709206 0.000000
0.528897 0.709206 0.000000
0.558861 0.709206 0.000000
0.588694 0.709206 0.000000
0.618405 0.709206 0.000000
0.648000 0.709206 0.000000
0.677487 0.709206 0.000000
0.706870 0.709206 0.000000
0.736155 0.709206 0.000000
0.764830 0.709206 0.000000
0.792479 0.709206 0.000000
0.820047 0.709206 0.000000
0.847537 0.709206 0.000000
0.874954 0.709206 0.000000
0.902300 0.709206 0.000000
0.929578 0.709206 0.000000
0.956790 0.709206 0.000000
0.983938 0.709206 0.000000
1.000000 0.709206 0.000000
0.044500 0.739228 0.000000
0.083533 0.739228 0.000000
0.118869 0.739228 0.000000
0.152932 0.739228 0.000000
0.186194 0.739228 0.000000
0.218873 0.739228 0.000000
0.251094 0.739228 0.000000
0.282939 0.739228 0.000000
0.314467 0.739228 0.000000
0.345719 0.739228 0.000000
0.376728 0.739228 0.000000
0.407521 0.739228 0.000000
0.438118 0.739228 0.000000
0.468537 0.739228 0.000000
0.498793 0.739228 0.000000
0.528897 0.739228 0.000000
0.558861 0.739228 0.000000
0.588694 0.739228 0.000000
0.618405 0.739228 0.000000
0.648000 0.739228 0.000000
0.677487 0.739228 0.000000
0.706870 0.739228 0.000000
0.736155 0.739228 0.000000
0.764830 0.739228 0.000000
0.792479 0.739228 0.000000
0.820047 0.739228 0.000000
0.847537 0.739228 0.000000
0.874954 0.739228 0.000000
0.902300 0.739228 0.000000
0.929578 0.739228 0.000000
0.956790 0.739228 0.000000
0.983938 0.739228 0.000000
1.000000 0.739228 0.000000
0.044500 0.768500 0.000000
0.083533 0.768500 0.000000
0.118869 0.768500 0.000000
0.152932 0.768500 0.000000
0.186194 0.768500 0.000000
0.218873 0.768500 0.000000
0.251094 0.768500 0.000000
0.282939 0.768500 0.000000
0.314467 0.768500 0.000000
0.345719 0.768500 0.000000
0.376728 0.768500 0.000000
0.407521 0.768500 0.000000
0.438118 0.768500 0.000000
0.468537 0.768500 0.000000
0.498793 0.768500 0.000000
0.528897 0.768500 0.000000
0.558861 0.768500 0.000000
0.588694 0.768500 0.000000
0.618405 0.768500 0.000000
0.648000 0.768500 0.000000
0.677487 0.768500 0.000000
0.706870 0.768500 0.000000
0.736155 0.768500 0.000000
0.764830 0.768500 0.000000
0.792479 0.768500 0.000000
0.820047 0.768500 0.000000
0.847537 0.768500 0.000000
0.874954 0.768500 0.000000
0.902300 0.768500 0.000000
0.929578 0.768500 0.000000
0.956790 0.768500 0.000000
0.983938 0.768500 0.000000
1.000000 0.768500 0.000000
0.044500 0.796948 0.000000
0.083533 0.796948 0.000000
0.118869 0.796948 0.000000
0.152932 0.796948 0.000000
0.186194 0.796948 0.000000
0.218873 0.796948 0.000000
0.251094 0.796948 0.000000
0.282939 0.796948 0.000000
0.314467 0.796948 0.000000
0.345719 0.796948 0.000000
0.376728 0.796948 0.000000
0.407521 0.796948 0.000000
0.438118 0.796948 0.000000
0.468537 0.796948 0.000000
0.498793 0.796948 0.000000
0.528897 0.796948 0.000000
0.558861 0.796948 0.000000
0.588694 0.796948 0.000000
0.618405 0.796948 0.000000
0.648000 0.796948 0.000000
0.677487 0.796948 0.000000
0.706870 0.796948 0.000000
0.736155 0.796948 0.000000
0.764830 0.796948 0.000000
0.792479 0.796948 0.000000
0.820047 0.796948 0.000000
0.847537 0.796948 0.000000
0.874954 0.796948 0.000000
0.902300 0.796948 0.000000
0.929578 0.796948 0.000000
0.956790 0.796948 0.000000
0.983938 0.796948 0.000000
1.000000 0.796948 0.000000
0.044500 0.825362 0.000000
0.083533 0.825362 0.000000
0.118869 0.825362 0.000000
0.152932 0.825362 0.000000
0.186194 0.825362 0.000000
0.218873 0.825362 0.000000
0.251094 0.825362 0.000000
0.282939 0.825362 0.000000
0.314467 0.825362 0.000000
0.345719 0.825362 0.000000
0.376728 0.825362 0.000000
0.407521 0.825362 0.000000
0.438118 0.825362 0.000000
0.468537 0.825362 0.000000
0.498793 0.825362 0.000000
0.528897 0.825362 0.000000
0.558861 0.825362 0.000000
0.588694 0.825362 0.000000
0.618405 0.825362 0.000000
0.648000 0.825362 0.000000
0.677487 0.825362 0.000000
0.706870 0.825362 0.000000
0.736155 0.825362 0.000000
0.764830 0.825362 0.000000
0.792479 0.825362 0.000000
