app/src/main/assets/luts/builtin/builtin_teal_orange_33.cube
TITLE "builtin_teal_orange_33.cube"
LUT_3D_SIZE 5
# Built-in fallback LUT for OMaster
DOMAIN_MIN 0.0 0.0 0.0
DOMAIN_MAX 1.0 1.0 1.0
0.000000 0.005000 0.082000
0.178770 0.000000 0.060953
0.462539 0.000000 0.039905
0.746309 0.000000 0.018858
1.000000 0.000000 0.000000
0.000000 0.250498 0.011195
0.208272 0.241728 0.000000
0.492042 0.232958 0.000000
0.775000 0.225000 0.000000
1.000000 0.225000 0.000000
0.000000 0.500000 0.000000
0.225000 0.500000 0.000000
0.500000 0.500000 0.000000
0.778751 0.501875 0.000000
1.000000 0.507722 0.000000
0.000000 0.779004 0.000000
0.244701 0.784851 0.000000
0.531394 0.790697 0.000000
0.818087 0.796543 0.000000
1.000000 0.802390 0.000000
0.000000 1.000000 0.000000
0.284037 1.000000 0.000000
0.570730 1.000000 0.000000
0.857423 1.000000 0.000000
1.000000 1.000000 0.000000
0.000000 0.002022 0.349852
0.181748 0.000000 0.328805
0.465518 0.000000 0.307757
0.749287 0.000000 0.286710
1.000000 0.000000 0.265663
0.000000 0.247520 0.279047
0.211250 0.238750 0.258000
0.495020 0.229980 0.236953
0.775000 0.225000 0.225000
1.000000 0.225000 0.225000
0.000000 0.500000 0.225000
0.225000 0.500000 0.225000
0.500000 0.500000 0.225000
0.782722 0.503861 0.215734
1.000000 0.509707 0.201702
0.000000 0.780990 0.210625
0.248672 0.786836 0.196594
0.535365 0.792683 0.182562
0.822058 0.798529 0.168530
1.000000 0.804376 0.154499
0.001315 1.000000 0.163422
0.288008 1.000000 0.149390
0.574701 1.000000 0.135359
0.861394 1.000000 0.121327
1.000000 1.000000 0.107296
0.000000 0.000000 0.617704
0.184726 0.000000 0.596657
0.468496 0.000000 0.575610
0.752266 0.000000 0.554562
1.000000 0.000000 0.533515
0.000000 0.244542 0.546900
0.214228 0.235772 0.525852
0.497998 0.227002 0.504805
0.775000 0.225000 0.500000
1.000000 0.225000 0.500000
0.000000 0.500000 0.500000
0.225000 0.500000 0.500000
0.500000 0.500000 0.500000
0.786693 0.505846 0.485968
1.000000 0.511693 0.471937
0.000000 0.782975 0.480860
0.252643 0.788822 0.466828
0.539336 0.794668 0.452797
0.826029 0.800515 0.438765
1.000000 0.806361 0.424734
0.005286 1.000000 0.433657
0.291979 1.000000 0.419625
0.578672 1.000000 0.405594
0.865365 1.000000 0.391562
1.000000 1.000000 0.377530
0.000000 0.000000 0.885557
0.187704 0.000000 0.864509
0.471474 0.000000 0.843462
0.755244 0.000000 0.822414
1.000000 0.000000 0.801367
0.000000 0.241563 0.814752
0.217206 0.232793 0.793704
0.500000 0.225000 0.775000
0.775000 0.225000 0.775000
1.000000 0.225000 0.775000
0.000000 0.500000 0.775000
0.225000 0.500000 0.775000
0.503971 0.501986 0.770235
0.790664 0.507832 0.756203
1.000000 0.513678 0.742172
0.000000 0.784961 0.751095
0.256614 0.790807 0.737063
0.543307 0.796653 0.723032
0.830000 0.802500 0.709000
1.000000 0.808347 0.694968
0.009257 1.000000 0.703892
0.295950 1.000000 0.689860
0.582643 1.000000 0.675828
0.869336 1.000000 0.661797
1.000000 1.000000 0.647765
0.000000 0.000000 1.000000
0.190683 0.000000 1.000000
0.474452 0.000000 1.000000
0.758222 0.000000 1.000000
1.000000 0.000000 1.000000
0.000000 0.238585 1.000000
0.220185 0.229815 1.000000
0.500000 0.225000 1.000000
0.775000 0.225000 1.000000
1.000000 0.225000 1.000000
0.000000 0.500000 1.000000
0.225000 0.500000 1.000000
0.507942 0.503971 1.000000
0.794635 0.509817 1.000000
1.000000 0.515664 1.000000
0.000000 0.786946 1.000000
0.260585 0.792793 1.000000
0.547278 0.798639 0.993266
0.833971 0.804485 0.979235
1.000000 0.810332 0.965203
0.013228 1.000000 0.974126
0.299921 1.000000 0.960095
0.586614 1.000000 0.946063
0.873307 1.000000 0.932032
1.000000 1.000000 0.918000
