app/src/main/assets/luts/builtin/builtin_hasselblad_natural_33.cube
TITLE "builtin_hasselblad_natural_33.cube"
LUT_3D_SIZE 33
# Built-in fallback LUT for OMaster
DOMAIN_MIN 0.0 0.0 0.0
DOMAIN_MAX 1.0 1.0 1.0
0.046200 0.030000 0.013800
0.074303 0.029289 0.013089
0.102652 0.028571 0.012371
0.131248 0.027847 0.011647
0.160092 0.027117 0.010917
0.189182 0.026380 0.010180
0.218519 0.025637 0.009437
0.248103 0.024889 0.008689
0.277933 0.024133 0.007933
0.310850 0.023300 0.007100
0.343767 0.022467 0.006267
0.376683 0.021633 0.005433
0.409600 0.020800 0.004600
0.442517 0.019967 0.003767
0.475433 0.019133 0.002933
0.508350 0.018300 0.002100
0.541267 0.017467 0.001267
0.574183 0.016633 0.000433
0.607100 0.015800 0.000000
0.640017 0.014967 0.000000
0.672933 0.014133 0.000000
0.705850 0.013300 0.000000
0.738767 0.012467 0.000000
0.771683 0.011633 0.000000
0.804600 0.010800 0.000000
0.834883 0.010033 0.000000
0.865167 0.009267 0.000000
0.895450 0.008500 0.000000
0.925733 0.007733 0.000000
0.956017 0.006967 0.000000
0.986300 0.006200 0.000000
1.000000 0.005433 0.000000
1.000000 0.004667 0.000000
0.045489 0.058103 0.013089
0.073591 0.057391 0.012377
0.101941 0.056673 0.011659
0.130537 0.055949 0.010935
0.159380 0.055219 0.010205
0.188470 0.054483 0.009469
0.217807 0.053740 0.008726
0.247391 0.052991 0.007977
0.277222 0.052236 0.007222
0.310139 0.051403 0.006389
0.343055 0.050569 0.005555
0.375972 0.049736 0.004722
0.408889 0.048903 0.003889
0.441805 0.048069 0.003055
0.474722 0.047236 0.002222
0.507639 0.046403 0.001389
0.540555 0.045569 0.000555
0.573472 0.044736 0.000000
0.606389 0.043903 0.000000
0.639305 0.043069 0.000000
0.672222 0.042236 0.000000
0.705139 0.041403 0.000000
0.738055 0.040569 0.000000
0.770972 0.039736 0.000000
0.803889 0.038903 0.000000
0.834172 0.038136 0.000000
0.864455 0.037369 0.000000
0.894739 0.036603 0.000000
0.925022 0.035836 0.000000
0.955305 0.035069 0.000000
0.985589 0.034303 0.000000
1.000000 0.033536 0.000000
1.000000 0.032769 0.000000
0.044771 0.086452 0.012371
0.072873 0.085741 0.011659
0.101223 0.085023 0.010942
0.129819 0.084299 0.010218
0.158663 0.083569 0.009487
0.187753 0.082832 0.008751
0.217090 0.082090 0.008008
0.246673 0.081341 0.007259
0.276504 0.080585 0.006504
0.309421 0.079752 0.005671
0.342338 0.078919 0.004837
0.375254 0.078085 0.004004
0.408171 0.077252 0.003171
0.441088 0.076419 0.002337
0.474004 0.075585 0.001504
0.506921 0.074752 0.000671
0.539837 0.073919 0.000000
0.572754 0.073085 0.000000
0.605671 0.072252 0.000000
0.638587 0.071419 0.000000
0.671504 0.070585 0.000000
0.704421 0.069752 0.000000
0.737337 0.068919 0.000000
0.770254 0.068085 0.000000
0.803171 0.067252 0.000000
0.833454 0.066485 0.000000
0.863738 0.065719 0.000000
0.894021 0.064952 0.000000
0.924304 0.064185 0.000000
0.954588 0.063419 0.000000
0.984871 0.062652 0.000000
1.000000 0.061885 0.000000
1.000000 0.061119 0.000000
0.044047 0.115048 0.011647
0.072149 0.114337 0.010935
0.100499 0.113619 0.010218
0.129095 0.112895 0.009494
0.157939 0.112165 0.008764
0.187029 0.111429 0.008027
0.216366 0.110686 0.007284
0.245949 0.109937 0.006535
0.275780 0.109182 0.005780
0.308697 0.108348 0.004947
0.341614 0.107515 0.004114
0.374530 0.106682 0.003280
0.407447 0.105848 0.002447
0.440364 0.105015 0.001614
0.473280 0.104182 0.000780
0.506197 0.103348 0.000000
0.539114 0.102515 0.000000
0.572030 0.101682 0.000000
0.604947 0.100848 0.000000
0.637864 0.100015 0.000000
0.670780 0.099182 0.000000
0.703697 0.098348 0.000000
0.736614 0.097515 0.000000
0.769530 0.096682 0.000000
0.802447 0.095848 0.000000
0.832730 0.095082 0.000000
0.863014 0.094315 0.000000
0.893297 0.093548 0.000000
0.923580 0.092782 0.000000
0.953864 0.092015 0.000000
0.984147 0.091248 0.000000
1.000000 0.090482 0.000000
1.000000 0.089715 0.000000
0.043317 0.143892 0.010917
0.071419 0.143180 0.010205
0.099769 0.142462 0.009487
0.128365 0.141739 0.008764
0.157208 0.141008 0.008033
0.186298 0.140272 0.007297
0.215635 0.139529 0.006554
0.245219 0.138780 0.005805
0.275050 0.138025 0.005050
0.307967 0.137192 0.004217
0.340883 0.136358 0.003383
0.373800 0.135525 0.002550
0.406717 0.134692 0.001717
0.439633 0.133858 0.000883
0.472550 0.133025 0.000050
0.505467 0.132192 0.000000
0.538383 0.131358 0.000000
0.571300 0.130525 0.000000
0.604217 0.129692 0.000000
0.637133 0.128858 0.000000
0.670050 0.128025 0.000000
0.702967 0.127192 0.000000
0.735883 0.126358 0.000000
0.768800 0.125525 0.000000
0.801717 0.124692 0.000000
0.832000 0.123925 0.000000
0.862283 0.123158 0.000000
0.892567 0.122392 0.000000
0.922850 0.121625 0.000000
0.953133 0.120858 0.000000
0.983417 0.120092 0.000000
1.000000 0.119325 0.000000
1.000000 0.118558 0.000000
0.042580 0.172982 0.010180
0.070683 0.172270 0.009469
0.099032 0.171553 0.008751
0.127629 0.170829 0.008027
0.156472 0.170098 0.007297
0.185562 0.169362 0.006560
0.214899 0.168619 0.005818
0.244483 0.167870 0.005069
0.274314 0.167115 0.004314
0.307230 0.166282 0.003480
0.340147 0.165448 0.002647
0.373064 0.164615 0.001814
0.405980 0.163782 0.000980
0.438897 0.162948 0.000147
0.471814 0.162115 0.000000
0.504730 0.161282 0.000000
0.537647 0.160448 0.000000
0.570564 0.159615 0.000000
0.603480 0.158782 0.000000
0.636397 0.157948 0.000000
0.669314 0.157115 0.000000
0.702230 0.156282 0.000000
0.735147 0.155448 0.000000
0.768064 0.154615 0.000000
0.800980 0.153782 0.000000
0.831264 0.153015 0.000000
0.861547 0.152248 0.000000
0.891830 0.151482 0.000000
0.922114 0.150715 0.000000
0.952397 0.149948 0.000000
0.982680 0.149182 0.000000
1.000000 0.148415 0.000000
1.000000 0.147648 0.000000
0.041837 0.202319 0.009437
0.069940 0.201607 0.008726
0.098290 0.200890 0.008008
0.126886 0.200166 0.007284
0.155729 0.199435 0.006554
0.184819 0.198699 0.005818
0.214156 0.197956 0.005075
0.243740 0.197207 0.004326
0.273571 0.196452 0.003571
0.306488 0.195619 0.002737
0.339404 0.194785 0.001904
0.372321 0.193952 0.001071
0.405238 0.193119 0.000237
0.438154 0.192285 0.000000
0.471071 0.191452 0.000000
0.503988 0.190619 0.000000
0.536904 0.189785 0.000000
0.569821 0.188952 0.000000
0.602738 0.188119 0.000000
0.635654 0.187285 0.000000
0.668571 0.186452 0.000000
0.701488 0.185619 0.000000
0.734404 0.184785 0.000000
0.767321 0.183952 0.000000
0.800238 0.183119 0.000000
0.830521 0.182352 0.000000
0.860804 0.181585 0.000000
0.891088 0.180819 0.000000
0.921371 0.180052 0.000000
0.951654 0.179285 0.000000
0.981937 0.178519 0.000000
1.000000 0.177752 0.000000
1.000000 0.176985 0.000000
0.041089 0.231903 0.008689
0.069191 0.231191 0.007977
0.097541 0.230473 0.007259
0.126137 0.229749 0.006535
0.154980 0.229019 0.005805
0.184070 0.228283 0.005069
0.213407 0.227540 0.004326
0.242991 0.226791 0.003577
0.272822 0.226036 0.002822
0.305739 0.225203 0.001989
0.338655 0.224369 0.001155
0.371572 0.223536 0.000322
0.404489 0.222703 0.000000
0.437405 0.221869 0.000000
0.470322 0.221036 0.000000
0.503239 0.220203 0.000000
0.536155 0.219369 0.000000
0.569072 0.218536 0.000000
0.601989 0.217703 0.000000
0.634905 0.216869 0.000000
0.667822 0.216036 0.000000
0.700739 0.215203 0.000000
0.733655 0.214369 0.000000
0.766572 0.213536 0.000000
0.799489 0.212703 0.000000
0.829772 0.211936 0.000000
0.860055 0.211169 0.000000
0.890339 0.210403 0.000000
0.920622 0.209636 0.000000
0.950905 0.208869 0.000000
0.981189 0.208103 0.000000
1.000000 0.207336 0.000000
1.000000 0.206569 0.000000
0.040333 0.261733 0.007933
0.068436 0.261022 0.007222
0.096785 0.260304 0.006504
0.125382 0.259580 0.005780
0.154225 0.258850 0.005050
0.183315 0.258114 0.004314
0.212652 0.257371 0.003571
0.242236 0.256622 0.002822
0.272067 0.255867 0.002067
0.304983 0.255033 0.001233
0.337900 0.254200 0.000400
0.370817 0.253367 0.000000
0.403733 0.252533 0.000000
0.436650 0.251700 0.000000
0.469567 0.250867 0.000000
0.502483 0.250033 0.000000
0.535400 0.249200 0.000000
0.568317 0.248367 0.000000
0.601233 0.247533 0.000000
0.634150 0.246700 0.000000
0.667067 0.245867 0.000000
0.699983 0.245033 0.000000
0.732900 0.244200 0.000000
0.765817 0.243367 0.000000
0.798733 0.242533 0.000000
0.829017 0.241767 0.000000
0.859300 0.241000 0.000000
0.889583 0.240233 0.000000
0.919867 0.239467 0.000000
0.950150 0.238700 0.000000
0.980433 0.237933 0.000000
1.000000 0.237167 0.000000
1.000000 0.236400 0.000000
0.039500 0.294650 0.007100
0.067603 0.293939 0.006389
0.095952 0.293221 0.005671
0.124548 0.292497 0.004947
0.153392 0.291767 0.004217
0.182482 0.291030 0.003480
0.211819 0.290288 0.002737
0.241403 0.289539 0.001989
0.271233 0.288783 0.001233
0.304150 0.287950 0.000400
0.337067 0.287117 0.000000
0.369983 0.286283 0.000000
0.402900 0.285450 0.000000
0.435817 0.284617 0.000000
0.468733 0.283783 0.000000
0.501650 0.282950 0.000000
0.534567 0.282117 0.000000
0.567483 0.281283 0.000000
0.600400 0.280450 0.000000
0.633317 0.279617 0.000000
0.666233 0.278783 0.000000
0.699150 0.277950 0.000000
0.732067 0.277117 0.000000
0.764983 0.276283 0.000000
0.797900 0.275450 0.000000
0.828183 0.274683 0.000000
0.858467 0.273917 0.000000
0.888750 0.273150 0.000000
0.919033 0.272383 0.000000
0.949317 0.271617 0.000000
0.979600 0.270850 0.000000
1.000000 0.270083 0.000000
1.000000 0.269317 0.000000
0.038667 0.327567 0.006267
0.066769 0.326855 0.005555
0.095119 0.326138 0.004837
0.123715 0.325414 0.004114
0.152558 0.324683 0.003383
0.181648 0.323947 0.002647
0.210985 0.323204 0.001904
0.240569 0.322455 0.001155
0.270400 0.321700 0.000400
0.303317 0.320867 0.000000
0.336233 0.320033 0.000000
0.369150 0.319200 0.000000
0.402067 0.318367 0.000000
0.434983 0.317533 0.000000
0.467900 0.316700 0.000000
0.500817 0.315867 0.000000
0.533733 0.315033 0.000000
0.566650 0.314200 0.000000
0.599567 0.313367 0.000000
0.632483 0.312533 0.000000
0.665400 0.311700 0.000000
0.698317 0.310867 0.000000
0.731233 0.310033 0.000000
0.764150 0.309200 0.000000
0.797067 0.308367 0.000000
0.827350 0.307600 0.000000
0.857633 0.306833 0.000000
0.887917 0.306067 0.000000
0.918200 0.305300 0.000000
0.948483 0.304533 0.000000
0.978767 0.303767 0.000000
1.000000 0.303000 0.000000
1.000000 0.302233 0.000000
0.037833 0.360483 0.005433
0.065936 0.359772 0.004722
0.094285 0.359054 0.004004
0.122882 0.358330 0.003280
0.151725 0.357600 0.002550
0.180815 0.356864 0.001814
0.210152 0.356121 0.001071
0.239736 0.355372 0.000322
0.269567 0.354617 0.000000
0.302483 0.353783 0.000000
0.335400 0.352950 0.000000
0.368317 0.352117 0.000000
0.401233 0.351283 0.000000
0.434150 0.350450 0.000000
0.467067 0.349617 0.000000
0.499983 0.348783 0.000000
0.532900 0.347950 0.000000
0.565817 0.347117 0.000000
0.598733 0.346283 0.000000
0.631650 0.345450 0.000000
0.664567 0.344617 0.000000
0.697483 0.343783 0.000000
0.730400 0.342950 0.000000
0.763317 0.342117 0.000000
0.796233 0.341283 0.000000
0.826517 0.340517 0.000000
0.856800 0.339750 0.000000
0.887083 0.338983 0.000000
0.917367 0.338217 0.000000
0.947650 0.337450 0.000000
0.977933 0.336683 0.000000
1.000000 0.335917 0.000000
1.000000 0.335150 0.000000
0.037000 0.393400 0.004600
0.065103 0.392689 0.003889
0.093452 0.391971 0.003171
0.122048 0.391247 0.002447
0.150892 0.390517 0.001717
0.179982 0.389780 0.000980
0.209319 0.389038 0.000237
0.238903 0.388289 0.000000
0.268733 0.387533 0.000000
0.301650 0.386700 0.000000
0.334567 0.385867 0.000000
0.367483 0.385033 0.000000
0.400400 0.384200 0.000000
0.433317 0.383367 0.000000
0.466233 0.382533 0.000000
0.499150 0.381700 0.000000
0.532067 0.380867 0.000000
0.564983 0.380033 0.000000
0.597900 0.379200 0.000000
0.630817 0.378367 0.000000
0.663733 0.377533 0.000000
0.696650 0.376700 0.000000
0.729567 0.375867 0.000000
0.762483 0.375033 0.000000
0.795400 0.374200 0.000000
0.825683 0.373433 0.000000
0.855967 0.372667 0.000000
0.886250 0.371900 0.000000
0.916533 0.371133 0.000000
0.946817 0.370367 0.000000
0.977100 0.369600 0.000000
1.000000 0.368833 0.000000
1.000000 0.368067 0.000000
0.036167 0.426317 0.003767
0.064269 0.425605 0.003055
0.092619 0.424887 0.002337
0.121215 0.424164 0.001614
0.150058 0.423433 0.000883
0.179148 0.422697 0.000147
0.208485 0.421954 0.000000
0.238069 0.421205 0.000000
0.267900 0.420450 0.000000
0.300817 0.419617 0.000000
0.333733 0.418783 0.000000
0.366650 0.417950 0.000000
0.399567 0.417117 0.000000
0.432483 0.416283 0.000000
0.465400 0.415450 0.000000
0.498317 0.414617 0.000000
0.531233 0.413783 0.000000
0.564150 0.412950 0.000000
0.597067 0.412117 0.000000
0.629983 0.411283 0.000000
0.662900 0.410450 0.000000
0.695817 0.409617 0.000000
0.728733 0.408783 0.000000
0.761650 0.407950 0.000000
0.794567 0.407117 0.000000
0.824850 0.406350 0.000000
0.855133 0.405583 0.000000
0.885417 0.404817 0.000000
0.915700 0.404050 0.000000
0.945983 0.403283 0.000000
0.976267 0.402517 0.000000
1.000000 0.401750 0.000000
1.000000 0.400983 0.000000
0.035333 0.459233 0.002933
0.063436 0.458522 0.002222
0.091785 0.457804 0.001504
0.120382 0.457080 0.000780
0.149225 0.456350 0.000050
0.178315 0.455614 0.000000
0.207652 0.454871 0.000000
0.237236 0.454122 0.000000
0.267067 0.453367 0.000000
0.299983 0.452533 0.000000
0.332900 0.451700 0.000000
0.365817 0.450867 0.000000
0.398733 0.450033 0.000000
0.431650 0.449200 0.000000
0.464567 0.448367 0.000000
0.497483 0.447533 0.000000
0.530400 0.446700 0.000000
0.563317 0.445867 0.000000
0.596233 0.445033 0.000000
0.629150 0.444200 0.000000
0.662067 0.443367 0.000000
0.694983 0.442533 0.000000
0.727900 0.441700 0.000000
0.760817 0.440867 0.000000
0.793733 0.440033 0.000000
0.824017 0.439267 0.000000
0.854300 0.438500 0.000000
0.884583 0.437733 0.000000
0.914867 0.436967 0.000000
0.945150 0.436200 0.000000
0.975433 0.435433 0.000000
1.000000 0.434667 0.000000
1.000000 0.433900 0.000000
0.034500 0.492150 0.002100
0.062603 0.491439 0.001389
0.090952 0.490721 0.000671
0.119548 0.489997 0.000000
0.148392 0.489267 0.000000
0.177482 0.488530 0.000000
0.206819 0.487788 0.000000
0.236403 0.487039 0.000000
0.266233 0.486283 0.000000
0.299150 0.485450 0.000000
0.332067 0.484617 0.000000
0.364983 0.483783 0.000000
0.397900 0.482950 0.000000
0.430817 0.482117 0.000000
0.463733 0.481283 0.000000
0.496650 0.480450 0.000000
0.529567 0.479617 0.000000
0.562483 0.478783 0.000000
0.595400 0.477950 0.000000
0.628317 0.477117 0.000000
0.661233 0.476283 0.000000
0.694150 0.475450 0.000000
0.727067 0.474617 0.000000
0.759983 0.473783 0.000000
0.792900 0.472950 0.000000
0.823183 0.472183 0.000000
0.853467 0.471417 0.000000
0.883750 0.470650 0.000000
0.914033 0.469883 0.000000
0.944317 0.469117 0.000000
0.974600 0.468350 0.000000
1.000000 0.467583 0.000000
1.000000 0.466817 0.000000
0.033667 0.525067 0.001267
0.061769 0.524355 0.000555
0.090119 0.523637 0.000000
0.118715 0.522914 0.000000
0.147558 0.522183 0.000000
0.176648 0.521447 0.000000
0.205985 0.520704 0.000000
0.235569 0.519955 0.000000
0.265400 0.519200 0.000000
0.298317 0.518367 0.000000
0.331233 0.517533 0.000000
0.364150 0.516700 0.000000
0.397067 0.515867 0.000000
0.429983 0.515033 0.000000
0.462900 0.514200 0.000000
0.495817 0.513367 0.000000
0.528733 0.512533 0.000000
0.561650 0.511700 0.000000
0.594567 0.510867 0.000000
0.627483 0.510033 0.000000
0.660400 0.509200 0.000000
0.693317 0.508367 0.000000
0.726233 0.507533 0.000000
0.759150 0.506700 0.000000
0.792067 0.505867 0.000000
0.822350 0.505100 0.000000
0.852633 0.504333 0.000000
0.882917 0.503567 0.000000
0.913200 0.502800 0.000000
0.943483 0.502033 0.000000
0.973767 0.501267 0.000000
1.000000 0.500500 0.000000
1.000000 0.499733 0.000000
0.032833 0.557983 0.000433
0.060936 0.557272 0.000000
0.089285 0.556554 0.000000
0.117882 0.555830 0.000000
0.146725 0.555100 0.000000
0.175815 0.554364 0.000000
0.205152 0.553621 0.000000
0.234736 0.552872 0.000000
0.264567 0.552117 0.000000
0.297483 0.551283 0.000000
0.330400 0.550450 0.000000
0.363317 0.549617 0.000000
0.396233 0.548783 0.000000
0.429150 0.547950 0.000000
0.462067 0.547117 0.000000
0.494983 0.546283 0.000000
0.527900 0.545450 0.000000
0.560817 0.544617 0.000000
0.593733 0.543783 0.000000
0.626650 0.542950 0.000000
0.659567 0.542117 0.000000
0.692483 0.541283 0.000000
0.725400 0.540450 0.000000
0.758317 0.539617 0.000000
0.791233 0.538783 0.000000
0.821517 0.538017 0.000000
0.851800 0.537250 0.000000
0.882083 0.536483 0.000000
0.912367 0.535717 0.000000
0.942650 0.534950 0.000000
0.972933 0.534183 0.000000
1.000000 0.533417 0.000000
1.000000 0.532650 0.000000
0.032000 0.590900 0.000000
0.060103 0.590189 0.000000
0.088452 0.589471 0.000000
0.117048 0.588747 0.000000
0.145892 0.588017 0.000000
0.174982 0.587280 0.000000
0.204319 0.586538 0.000000
0.233903 0.585789 0.000000
0.263733 0.585033 0.000000
0.296650 0.584200 0.000000
0.329567 0.583367 0.000000
0.362483 0.582533 0.000000
0.395400 0.581700 0.000000
0.428317 0.580867 0.000000
0.461233 0.580033 0.000000
0.494150 0.579200 0.000000
0.527067 0.578367 0.000000
0.559983 0.577533 0.000000
0.592900 0.576700 0.000000
0.625817 0.575867 0.000000
0.658733 0.575033 0.000000
0.691650 0.574200 0.000000
0.724567 0.573367 0.000000
0.757483 0.572533 0.000000
0.790400 0.571700 0.000000
0.820683 0.570933 0.000000
0.850967 0.570167 0.000000
0.881250 0.569400 0.000000
0.911533 0.568633 0.000000
0.941817 0.567867 0.000000
0.972100 0.567100 0.000000
1.000000 0.566333 0.000000
1.000000 0.565567 0.000000
0.031167 0.623817 0.000000
0.059269 0.623105 0.000000
0.087619 0.622387 0.000000
0.116215 0.621664 0.000000
0.145058 0.620933 0.000000
0.174148 0.620197 0.000000
0.203485 0.619454 0.000000
0.233069 0.618705 0.000000
0.262900 0.617950 0.000000
0.295817 0.617117 0.000000
0.328733 0.616283 0.000000
0.361650 0.615450 0.000000
0.394567 0.614617 0.000000
0.427483 0.613783 0.000000
0.460400 0.612950 0.000000
0.493317 0.612117 0.000000
0.526233 0.611283 0.000000
0.559150 0.610450 0.000000
0.592067 0.609617 0.000000
0.624983 0.608783 0.000000
0.657900 0.607950 0.000000
0.690817 0.607117 0.000000
0.723733 0.606283 0.000000
0.756650 0.605450 0.000000
0.789567 0.604617 0.000000
0.819850 0.603850 0.000000
0.850133 0.603083 0.000000
0.880417 0.602317 0.000000
0.910700 0.601550 0.000000
0.940983 0.600783 0.000000
0.971267 0.600017 0.000000
1.000000 0.599250 0.000000
1.000000 0.598483 0.000000
0.030333 0.656733 0.000000
0.058436 0.656022 0.000000
0.086785 0.655304 0.000000
0.115382 0.654580 0.000000
0.144225 0.653850 0.000000
0.173315 0.653114 0.000000
0.202652 0.652371 0.000000
0.232236 0.651622 0.000000
0.262067 0.650867 0.000000
0.294983 0.650033 0.000000
0.327900 0.649200 0.000000
0.360817 0.648367 0.000000
0.393733 0.647533 0.000000
0.426650 0.646700 0.000000
0.459567 0.645867 0.000000
0.492483 0.645033 0.000000
0.525400 0.644200 0.000000
0.558317 0.643367 0.000000
0.591233 0.642533 0.000000
0.624150 0.641700 0.000000
0.657067 0.640867 0.000000
0.689983 0.640033 0.000000
0.722900 0.639200 0.000000
0.755817 0.638367 0.000000
0.788733 0.637533 0.000000
0.819017 0.636767 0.000000
0.849300 0.636000 0.000000
0.879583 0.635233 0.000000
0.909867 0.634467 0.000000
0.940150 0.633700 0.000000
0.970433 0.632933 0.000000
1.000000 0.632167 0.000000
1.000000 0.631400 0.000000
0.029500 0.689650 0.000000
0.057603 0.688939 0.000000
0.085952 0.688221 0.000000
0.114548 0.687497 0.000000
0.143392 0.686767 0.000000
0.172482 0.686030 0.000000
0.201819 0.685288 0.000000
0.231403 0.684539 0.000000
0.261233 0.683783 0.000000
0.294150 0.682950 0.000000
0.327067 0.682117 0.000000
0.359983 0.681283 0.000000
0.392900 0.680450 0.000000
0.425817 0.679617 0.000000
0.458733 0.678783 0.000000
0.491650 0.677950 0.000000
0.524567 0.677117 0.000000
0.557483 0.676283 0.000000
0.590400 0.675450 0.000000
0.623317 0.674617 0.000000
0.656233 0.673783 0.000000
0.689150 0.672950 0.000000
0.722067 0.672117 0.000000
0.754983 0.671283 0.000000
0.787900 0.670450 0.000000
0.818183 0.669683 0.000000
0.848467 0.668917 0.000000
0.878750 0.668150 0.000000
0.909033 0.667383 0.000000
0.939317 0.666617 0.000000
0.969600 0.665850 0.000000
0.999883 0.665083 0.000000
1.000000 0.664317 0.000000
0.028667 0.722567 0.000000
0.056769 0.721855 0.000000
0.085119 0.721137 0.000000
0.113715 0.720414 0.000000
0.142558 0.719683 0.000000
0.171648 0.718947 0.000000
0.200985 0.718204 0.000000
0.230569 0.717455 0.000000
0.260400 0.716700 0.000000
0.293317 0.715867 0.000000
0.326233 0.715033 0.000000
0.359150 0.714200 0.000000
0.392067 0.713367 0.000000
0.424983 0.712533 0.000000
0.457900 0.711700 0.000000
0.490817 0.710867 0.000000
0.523733 0.710033 0.000000
0.556650 0.709200 0.000000
0.589567 0.708367 0.000000
0.622483 0.707533 0.000000
0.655400 0.706700 0.000000
0.688317 0.705867 0.000000
0.721233 0.705033 0.000000
0.754150 0.704200 0.000000
0.787067 0.703367 0.000000
0.817350 0.702600 0.000000
0.847633 0.701833 0.000000
0.877917 0.701067 0.000000
0.908200 0.700300 0.000000
0.938483 0.699533 0.000000
0.968767 0.698767 0.000000
0.999050 0.698000 0.000000
1.000000 0.697233 0.000000
0.027833 0.755483 0.000000
0.055936 0.754772 0.000000
0.084285 0.754054 0.000000
0.112882 0.753330 0.000000
0.141725 0.752600 0.000000
0.170815 0.751864 0.000000
0.200152 0.751121 0.000000
0.229736 0.750372 0.000000
0.259567 0.749617 0.000000
0.292483 0.748783 0.000000
0.325400 0.747950 0.000000
0.358317 0.747117 0.000000
0.391233 0.746283 0.000000
0.424150 0.745450 0.000000
0.457067 0.744617 0.000000
0.489983 0.743783 0.000000
0.522900 0.742950 0.000000
0.555817 0.742117 0.000000
0.588733 0.741283 0.000000
0.621650 0.740450 0.000000
0.654567 0.739617 0.000000
0.687483 0.738783 0.000000
0.720400 0.737950 0.000000
0.753317 0.737117 0.000000
0.786233 0.736283 0.000000
0.816517 0.735517 0.000000
0.846800 0.734750 0.000000
0.877083 0.733983 0.000000
0.907367 0.733217 0.000000
0.937650 0.732450 0.000000
0.967933 0.731683 0.000000
0.998217 0.730917 0.000000
1.000000 0.730150 0.000000
0.027000 0.788400 0.000000
0.055103 0.787689 0.000000
0.083452 0.786971 0.000000
0.112048 0.786247 0.000000
0.140892 0.785517 0.000000
0.169982 0.784780 0.000000
0.199319 0.784038 0.000000
0.228903 0.783289 0.000000
0.258733 0.782533 0.000000
0.291650 0.781700 0.000000
0.324567 0.780867 0.000000
0.357483 0.780033 0.000000
0.390400 0.779200 0.000000
0.423317 0.778367 0.000000
0.456233 0.777533 0.000000
0.489150 0.776700 0.000000
0.522067 0.775867 0.000000
0.554983 0.775033 0.000000
0.587900 0.774200 0.000000
0.620817 0.773367 0.000000
0.653733 0.772533 0.000000
0.686650 0.771700 0.000000
0.719567 0.770867 0.000000
0.752483 0.770033 0.000000
0.785400 0.769200 0.000000
0.815683 0.768433 0.000000
0.845967 0.767667 0.000000
0.876250 0.766900 0.000000
0.906533 0.766133 0.000000
0.936817 0.765367 0.000000
0.967100 0.764600 0.000000
0.997383 0.763833 0.000000
1.000000 0.763067 0.000000
0.026233 0.818683 0.000000
0.054336 0.817972 0.000000
0.082685 0.817254 0.000000
0.111282 0.816530 0.000000
0.140125 0.815800 0.000000
0.169215 0.815064 0.000000
0.198552 0.814321 0.000000
0.228136 0.813572 0.000000
0.257967 0.812817 0.000000
0.290883 0.811983 0.000000
0.323800 0.811150 0.000000
0.356717 0.810317 0.000000
0.389633 0.809483 0.000000
0.422550 0.808650 0.000000
0.455467 0.807817 0.000000
0.488383 0.806983 0.000000
0.521300 0.806150 0.000000
0.554217 0.805317 0.000000
0.587133 0.804483 0.000000
0.620050 0.803650 0.000000
0.652967 0.802817 0.000000
0.685883 0.801983 0.000000
0.718800 0.801150 0.000000
0.751717 0.800317 0.000000
0.784633 0.799483 0.000000
0.814917 0.798717 0.000000
0.845200 0.797950 0.000000
0.875483 0.797183 0.000000
0.905767 0.796417 0.000000
0.936050 0.795650 0.000000
0.966333 0.794883 0.000000
0.996617 0.794117 0.000000
1.000000 0.793350 0.000000
0.025467 0.848967 0.000000
0.053569 0.848255 0.000000
0.081919 0.847538 0.000000
0.110515 0.846814 0.000000
0.139358 0.846083 0.000000
0.168448 0.845347 0.000000
0.197785 0.844604 0.000000
0.227369 0.843855 0.000000
0.257200 0.843100 0.000000
0.290117 0.842267 0.000000
0.323033 0.841433 0.000000
0.355950 0.840600 0.000000
0.388867 0.839767 0.000000
0.421783 0.838933 0.000000
0.454700 0.838100 0.000000
0.487617 0.837267 0.000000
0.520533 0.836433 0.000000
0.553450 0.835600 0.000000
0.586367 0.834767 0.000000
0.619283 0.833933 0.000000
0.652200 0.833100 0.000000
0.685117 0.832267 0.000000
0.718033 0.831433 0.000000
0.750950 0.830600 0.000000
0.783867 0.829767 0.000000
