app/src/main/assets/luts/builtin/builtin_hasselblad_natural_33.cube
TITLE "builtin_hasselblad_natural_33.cube"
LUT_3D_SIZE 9
# Built-in fallback LUT for OMaster
DOMAIN_MIN 0.0 0.0 0.0
DOMAIN_MAX 1.0 1.0 1.0
0.046200 0.030000 0.013800
0.160092 0.027117 0.010917
0.277933 0.024133 0.007933
0.409600 0.020800 0.004600
0.541267 0.017467 0.001267
0.672933 0.014133 0.000000
0.804600 0.010800 0.000000
0.925733 0.007733 0.000000
1.000000 0.004667 0.000000
0.043317 0.143892 0.010917
0.157208 0.141008 0.008033
0.275050 0.138025 0.005050
0.406717 0.134692 0.001717
0.538383 0.131358 0.000000
0.670050 0.128025 0.000000
0.801717 0.124692 0.000000
0.922850 0.121625 0.000000
1.000000 0.118558 0.000000
0.040333 0.261733 0.007933
0.154225 0.258850 0.005050
0.272067 0.255867 0.002067
0.403733 0.252533 0.000000
0.535400 0.249200 0.000000
0.667067 0.245867 0.000000
0.798733 0.242533 0.000000
0.919867 0.239467 0.000000
1.000000 0.236400 0.000000
0.037000 0.393400 0.004600
0.150892 0.390517 0.001717
0.268733 0.387533 0.000000
0.400400 0.384200 0.000000
0.532067 0.380867 0.000000
0.663733 0.377533 0.000000
0.795400 0.374200 0.000000
0.916533 0.371133 0.000000
1.000000 0.368067 0.000000
0.033667 0.525067 0.001267
0.147558 0.522183 0.000000
0.265400 0.519200 0.000000
0.397067 0.515867 0.000000
0.528733 0.512533 0.000000
0.660400 0.509200 0.000000
0.792067 0.505867 0.000000
0.913200 0.502800 0.000000
1.000000 0.499733 0.000000
0.030333 0.656733 0.000000
0.144225 0.653850 0.000000
0.262067 0.650867 0.000000
0.393733 0.647533 0.000000
0.525400 0.644200 0.000000
0.657067 0.640867 0.000000
0.788733 0.637533 0.000000
0.909867 0.634467 0.000000
1.000000 0.631400 0.000000
0.027000 0.788400 0.000000
0.140892 0.785517 0.000000
0.258733 0.782533 0.000000
0.390400 0.779200 0.000000
0.522067 0.775867 0.000000
0.653733 0.772533 0.000000
0.785400 0.769200 0.000000
0.906533 0.766133 0.000000
1.000000 0.763067 0.000000
0.023933 0.909533 0.000000
0.137825 0.906650 0.000000
0.255667 0.903667 0.000000
0.387333 0.900333 0.000000
0.519000 0.897000 0.000000
0.650667 0.893667 0.000000
0.782333 0.890333 0.000000
0.903467 0.887267 0.000000
1.000000 0.884200 0.000000
0.020867 1.000000 0.000000
0.134758 1.000000 0.000000
0.252600 1.000000 0.000000
0.384267 1.000000 0.000000
0.515933 1.000000 0.000000
0.647600 1.000000 0.000000
0.779267 1.000000 0.000000
0.900400 1.000000 0.000000
1.000000 1.000000 0.000000
0.043317 0.027117 0.127692
0.157208 0.024233 0.124808
0.275050 0.021250 0.121825
0.406717 0.017917 0.118492
0.538383 0.014583 0.115158
0.670050 0.011250 0.111825
0.801717 0.007917 0.108492
0.922850 0.004850 0.105425
1.000000 0.001783 0.102358
0.040433 0.141008 0.124808
0.154325 0.138125 0.121925
0.272167 0.135142 0.118942
0.403833 0.131808 0.115608
0.535500 0.128475 0.112275
0.667167 0.125142 0.108942
0.798833 0.121808 0.105608
0.919967 0.118742 0.102542
1.000000 0.115675 0.099475
0.037450 0.258850 0.121825
0.151342 0.255967 0.118942
0.269183 0.252983 0.115958
0.400850 0.249650 0.112625
0.532517 0.246317 0.109292
0.664183 0.242983 0.105958
0.795850 0.239650 0.102625
0.916983 0.236583 0.099558
1.000000 0.233517 0.096492
0.034117 0.390517 0.118492
0.148008 0.387633 0.115608
0.265850 0.384650 0.112625
0.397517 0.381317 0.109292
0.529183 0.377983 0.105958
0.660850 0.374650 0.102625
0.792517 0.371317 0.099292
0.913650 0.368250 0.096225
1.000000 0.365183 0.093158
0.030783 0.522183 0.115158
0.144675 0.519300 0.112275
0.262517 0.516317 0.109292
0.394183 0.512983 0.105958
0.525850 0.509650 0.102625
0.657517 0.506317 0.099292
0.789183 0.502983 0.095958
0.910317 0.499917 0.092892
1.000000 0.496850 0.089825
0.027450 0.653850 0.111825
0.141342 0.650967 0.108942
0.259183 0.647983 0.105958
0.390850 0.644650 0.102625
0.522517 0.641317 0.099292
0.654183 0.637983 0.095958
0.785850 0.634650 0.092625
0.906983 0.631583 0.089558
1.000000 0.628517 0.086492
0.024117 0.785517 0.108492
0.138008 0.782633 0.105608
0.255850 0.779650 0.102625
0.387517 0.776317 0.099292
0.519183 0.772983 0.095958
0.650850 0.769650 0.092625
0.782517 0.766317 0.089292
0.903650 0.763250 0.086225
1.000000 0.760183 0.083158
0.021050 0.906650 0.105425
0.134942 0.903767 0.102542
0.252783 0.900783 0.099558
0.384450 0.897450 0.096225
0.516117 0.894117 0.092892
0.647783 0.890783 0.089558
0.779450 0.887450 0.086225
0.900583 0.884383 0.083158
1.000000 0.881317 0.080092
0.017983 1.000000 0.102358
0.131875 1.000000 0.099475
0.249717 1.000000 0.096492
0.381383 1.000000 0.093158
0.513050 1.000000 0.089825
0.644717 1.000000 0.086492
0.776383 1.000000 0.083158
0.897517 1.000000 0.080092
1.000000 1.000000 0.077025
0.040333 0.024133 0.245533
0.154225 0.021250 0.242650
0.272067 0.018267 0.239667
0.403733 0.014933 0.236333
0.535400 0.011600 0.233000
0.667067 0.008267 0.229667
0.798733 0.004933 0.226333
0.919867 0.001867 0.223267
1.000000 0.000000 0.220200
0.037450 0.138025 0.242650
0.151342 0.135142 0.239767
0.269183 0.132158 0.236783
0.400850 0.128825 0.233450
0.532517 0.125492 0.230117
0.664183 0.122158 0.226783
0.795850 0.118825 0.223450
0.916983 0.115758 0.220383
1.000000 0.112692 0.217317
0.034467 0.255867 0.239667
0.148358 0.252983 0.236783
0.266200 0.250000 0.233800
0.397867 0.246667 0.230467
0.529533 0.243333 0.227133
0.661200 0.240000 0.223800
0.792867 0.236667 0.220467
0.914000 0.233600 0.217400
1.000000 0.230533 0.214333
0.031133 0.387533 0.236333
0.145025 0.384650 0.233450
0.262867 0.381667 0.230467
0.394533 0.378333 0.227133
0.526200 0.375000 0.223800
0.657867 0.371667 0.220467
0.789533 0.368333 0.217133
0.910667 0.365267 0.214067
1.000000 0.362200 0.211000
0.027800 0.519200 0.233000
0.141692 0.516317 0.230117
0.259533 0.513333 0.227133
0.391200 0.510000 0.223800
0.522867 0.506667 0.220467
0.654533 0.503333 0.217133
0.786200 0.500000 0.213800
0.907333 0.496933 0.210733
1.000000 0.493867 0.207667
0.024467 0.650867 0.229667
0.138358 0.647983 0.226783
0.256200 0.645000 0.223800
0.387867 0.641667 0.220467
0.519533 0.638333 0.217133
0.651200 0.635000 0.213800
0.782867 0.631667 0.210467
0.904000 0.628600 0.207400
1.000000 0.625533 0.204333
0.021133 0.782533 0.226333
0.135025 0.779650 0.223450
0.252867 0.776667 0.220467
0.384533 0.773333 0.217133
0.516200 0.770000 0.213800
0.647867 0.766667 0.210467
0.779533 0.763333 0.207133
0.900667 0.760267 0.204067
1.000000 0.757200 0.201000
0.018067 0.903667 0.223267
0.131958 0.900783 0.220383
0.249800 0.897800 0.217400
0.381467 0.894467 0.214067
0.513133 0.891133 0.210733
0.644800 0.887800 0.207400
0.776467 0.884467 0.204067
0.897600 0.881400 0.201000
1.000000 0.878333 0.197933
0.015000 1.000000 0.220200
0.128892 1.000000 0.217317
0.246733 1.000000 0.214333
0.378400 1.000000 0.211000
0.510067 1.000000 0.207667
0.641733 1.000000 0.204333
0.773400 1.000000 0.201000
0.894533 1.000000 0.197933
1.000000 0.999467 0.194867
0.037000 0.020800 0.377200
0.150892 0.017917 0.374317
0.268733 0.014933 0.371333
0.400400 0.011600 0.368000
0.532067 0.008267 0.364667
0.663733 0.004933 0.361333
0.795400 0.001600 0.358000
0.916533 0.000000 0.354933
1.000000 0.000000 0.351867
0.034117 0.134692 0.374317
0.148008 0.131808 0.371433
0.265850 0.128825 0.368450
0.397517 0.125492 0.365117
0.529183 0.122158 0.361783
0.660850 0.118825 0.358450
0.792517 0.115492 0.355117
0.913650 0.112425 0.352050
1.000000 0.109358 0.348983
0.031133 0.252533 0.371333
0.145025 0.249650 0.368450
0.262867 0.246667 0.365467
0.394533 0.243333 0.362133
0.526200 0.240000 0.358800
0.657867 0.236667 0.355467
0.789533 0.233333 0.352133
0.910667 0.230267 0.349067
1.000000 0.227200 0.346000
0.027800 0.384200 0.368000
0.141692 0.381317 0.365117
0.259533 0.378333 0.362133
0.391200 0.375000 0.358800
0.522867 0.371667 0.355467
0.654533 0.368333 0.352133
0.786200 0.365000 0.348800
0.907333 0.361933 0.345733
1.000000 0.358867 0.342667
0.024467 0.515867 0.364667
0.138358 0.512983 0.361783
0.256200 0.510000 0.358800
0.387867 0.506667 0.355467
0.519533 0.503333 0.352133
0.651200 0.500000 0.348800
0.782867 0.496667 0.345467
0.904000 0.493600 0.342400
1.000000 0.490533 0.339333
0.021133 0.647533 0.361333
0.135025 0.644650 0.358450
0.252867 0.641667 0.355467
0.384533 0.638333 0.352133
0.516200 0.635000 0.348800
0.647867 0.631667 0.345467
0.779533 0.628333 0.342133
0.900667 0.625267 0.339067
1.000000 0.622200 0.336000
0.017800 0.779200 0.358000
0.131692 0.776317 0.355117
0.249533 0.773333 0.352133
0.381200 0.770000 0.348800
0.512867 0.766667 0.345467
0.644533 0.763333 0.342133
0.776200 0.760000 0.338800
0.897333 0.756933 0.335733
1.000000 0.753867 0.332667
0.014733 0.900333 0.354933
0.128625 0.897450 0.352050
0.246467 0.894467 0.349067
0.378133 0.891133 0.345733
0.509800 0.887800 0.342400
0.641467 0.884467 0.339067
0.773133 0.881133 0.335733
0.894267 0.878067 0.332667
1.000000 0.875000 0.329600
0.011667 1.000000 0.351867
0.125558 1.000000 0.348983
0.243400 1.000000 0.346000
0.375067 1.000000 0.342667
0.506733 1.000000 0.339333
0.638400 1.000000 0.336000
0.770067 1.000000 0.332667
0.891200 0.999200 0.329600
1.000000 0.996133 0.326533
0.033667 0.017467 0.508867
0.147558 0.014583 0.505983
0.265400 0.011600 0.503000
0.397067 0.008267 0.499667
0.528733 0.004933 0.496333
0.660400 0.001600 0.493000
0.792067 0.000000 0.489667
0.913200 0.000000 0.486600
1.000000 0.000000 0.483533
0.030783 0.131358 0.505983
0.144675 0.128475 0.503100
0.262517 0.125492 0.500117
0.394183 0.122158 0.496783
0.525850 0.118825 0.493450
0.657517 0.115492 0.490117
0.789183 0.112158 0.486783
0.910317 0.109092 0.483717
1.000000 0.106025 0.480650
0.027800 0.249200 0.503000
0.141692 0.246317 0.500117
0.259533 0.243333 0.497133
0.391200 0.240000 0.493800
0.522867 0.236667 0.490467
0.654533 0.233333 0.487133
0.786200 0.230000 0.483800
0.907333 0.226933 0.480733
1.000000 0.223867 0.477667
0.024467 0.380867 0.499667
0.138358 0.377983 0.496783
0.256200 0.375000 0.493800
0.387867 0.371667 0.490467
0.519533 0.368333 0.487133
0.651200 0.365000 0.483800
0.782867 0.361667 0.480467
0.904000 0.358600 0.477400
1.000000 0.355533 0.474333
0.021133 0.512533 0.496333
0.135025 0.509650 0.493450
0.252867 0.506667 0.490467
0.384533 0.503333 0.487133
0.516200 0.500000 0.483800
0.647867 0.496667 0.480467
0.779533 0.493333 0.477133
0.900667 0.490267 0.474067
1.000000 0.487200 0.471000
0.017800 0.644200 0.493000
0.131692 0.641317 0.490117
0.249533 0.638333 0.487133
0.381200 0.635000 0.483800
0.512867 0.631667 0.480467
0.644533 0.628333 0.477133
0.776200 0.625000 0.473800
0.897333 0.621933 0.470733
1.000000 0.618867 0.467667
0.014467 0.775867 0.489667
0.128358 0.772983 0.486783
0.246200 0.770000 0.483800
0.377867 0.766667 0.480467
0.509533 0.763333 0.477133
0.641200 0.760000 0.473800
0.772867 0.756667 0.470467
0.894000 0.753600 0.467400
1.000000 0.750533 0.464333
0.011400 0.897000 0.486600
0.125292 0.894117 0.483717
0.243133 0.891133 0.480733
0.374800 0.887800 0.477400
0.506467 0.884467 0.474067
0.638133 0.881133 0.470733
0.769800 0.877800 0.467400
0.890933 0.874733 0.464333
1.000000 0.871667 0.461267
0.008333 1.000000 0.483533
0.122225 1.000000 0.480650
0.240067 1.000000 0.477667
0.371733 1.000000 0.474333
0.503400 1.000000 0.471000
0.635067 1.000000 0.467667
0.766733 0.998933 0.464333
0.887867 0.995867 0.461267
1.000000 0.992800 0.458200
0.030333 0.014133 0.640533
0.144225 0.011250 0.637650
0.262067 0.008267 0.634667
0.393733 0.004933 0.631333
0.525400 0.001600 0.628000
0.657067 0.000000 0.624667
0.788733 0.000000 0.621333
0.909867 0.000000 0.618267
1.000000 0.000000 0.615200
0.027450 0.128025 0.637650
0.141342 0.125142 0.634767
0.259183 0.122158 0.631783
0.390850 0.118825 0.628450
0.522517 0.115492 0.625117
0.654183 0.112158 0.621783
0.785850 0.108825 0.618450
0.906983 0.105758 0.615383
1.000000 0.102692 0.612317
0.024467 0.245867 0.634667
0.138358 0.242983 0.631783
0.256200 0.240000 0.628800
0.387867 0.236667 0.625467
0.519533 0.233333 0.622133
0.651200 0.230000 0.618800
0.782867 0.226667 0.615467
0.904000 0.223600 0.612400
1.000000 0.220533 0.609333
0.021133 0.377533 0.631333
0.135025 0.374650 0.628450
0.252867 0.371667 0.625467
0.384533 0.368333 0.622133
0.516200 0.365000 0.618800
0.647867 0.361667 0.615467
0.779533 0.358333 0.612133
0.900667 0.355267 0.609067
1.000000 0.352200 0.606000
0.017800 0.509200 0.628000
0.131692 0.506317 0.625117
0.249533 0.503333 0.622133
0.381200 0.500000 0.618800
0.512867 0.496667 0.615467
0.644533 0.493333 0.612133
0.776200 0.490000 0.608800
0.897333 0.486933 0.605733
1.000000 0.483867 0.602667
0.014467 0.640867 0.624667
0.128358 0.637983 0.621783
0.246200 0.635000 0.618800
0.377867 0.631667 0.615467
0.509533 0.628333 0.612133
0.641200 0.625000 0.608800
0.772867 0.621667 0.605467
0.894000 0.618600 0.602400
1.000000 0.615533 0.599333
0.011133 0.772533 0.621333
0.125025 0.769650 0.618450
0.242867 0.766667 0.615467
0.374533 0.763333 0.612133
0.506200 0.760000 0.608800
0.637867 0.756667 0.605467
0.769533 0.753333 0.602133
0.890667 0.750267 0.599067
1.000000 0.747200 0.596000
0.008067 0.893667 0.618267
0.121958 0.890783 0.615383
0.239800 0.887800 0.612400
0.371467 0.884467 0.609067
0.503133 0.881133 0.605733
0.634800 0.877800 0.602400
0.766467 0.874467 0.599067
0.887600 0.871400 0.596000
1.000000 0.868333 0.592933
0.005000 1.000000 0.615200
0.118892 1.000000 0.612317
0.236733 1.000000 0.609333
0.368400 1.000000 0.606000
0.500067 1.000000 0.602667
0.631733 0.998933 0.599333
0.763400 0.995600 0.596000
0.884533 0.992533 0.592933
1.000000 0.989467 0.589867
0.027000 0.010800 0.772200
0.140892 0.007917 0.769317
0.258733 0.004933 0.766333
0.390400 0.001600 0.763000
0.522067 0.000000 0.759667
0.653733 0.000000 0.756333
0.785400 0.000000 0.753000
0.906533 0.000000 0.749933
1.000000 0.000000 0.746867
0.024117 0.124692 0.769317
0.138008 0.121808 0.766433
0.255850 0.118825 0.763450
0.387517 0.115492 0.760117
0.519183 0.112158 0.756783
0.650850 0.108825 0.753450
0.782517 0.105492 0.750117
0.903650 0.102425 0.747050
1.000000 0.099358 0.743983
0.021133 0.242533 0.766333
0.135025 0.239650 0.763450
0.252867 0.236667 0.760467
0.384533 0.233333 0.757133
0.516200 0.230000 0.753800
0.647867 0.226667 0.750467
0.779533 0.223333 0.747133
0.900667 0.220267 0.744067
1.000000 0.217200 0.741000
0.017800 0.374200 0.763000
0.131692 0.371317 0.760117
0.249533 0.368333 0.757133
0.381200 0.365000 0.753800
0.512867 0.361667 0.750467
0.644533 0.358333 0.747133
0.776200 0.355000 0.743800
0.897333 0.351933 0.740733
1.000000 0.348867 0.737667
0.014467 0.505867 0.759667
0.128358 0.502983 0.756783
0.246200 0.500000 0.753800
0.377867 0.496667 0.750467
0.509533 0.493333 0.747133
0.641200 0.490000 0.743800
0.772867 0.486667 0.740467
0.894000 0.483600 0.737400
1.000000 0.480533 0.734333
0.011133 0.637533 0.756333
0.125025 0.634650 0.753450
0.242867 0.631667 0.750467
0.374533 0.628333 0.747133
0.506200 0.625000 0.743800
0.637867 0.621667 0.740467
0.769533 0.618333 0.737133
0.890667 0.615267 0.734067
1.000000 0.612200 0.731000
0.007800 0.769200 0.753000
0.121692 0.766317 0.750117
0.239533 0.763333 0.747133
0.371200 0.760000 0.743800
0.502867 0.756667 0.740467
0.634533 0.753333 0.737133
0.766200 0.750000 0.733800
0.887333 0.746933 0.730733
1.000000 0.743867 0.727667
0.004733 0.890333 0.749933
0.118625 0.887450 0.747050
0.236467 0.884467 0.744067
0.368133 0.881133 0.740733
0.499800 0.877800 0.737400
0.631467 0.874467 0.734067
0.763133 0.871133 0.730733
0.884267 0.868067 0.727667
1.000000 0.865000 0.724600
0.001667 1.000000 0.746867
0.115558 1.000000 0.743983
0.233400 1.000000 0.741000
0.365067 1.000000 0.737667
0.496733 0.998933 0.734333
0.628400 0.995600 0.731000
0.760067 0.992267 0.727667
0.881200 0.989200 0.724600
1.000000 0.986133 0.721533
0.023933 0.007733 0.893333
0.137825 0.004850 0.890450
0.255667 0.001867 0.887467
0.387333 0.000000 0.884133
0.519000 0.000000 0.880800
0.650667 0.000000 0.877467
0.782333 0.000000 0.874133
0.903467 0.000000 0.871067
1.000000 0.000000 0.868000
0.021050 0.121625 0.890450
0.134942 0.118742 0.887567
0.252783 0.115758 0.884583
0.384450 0.112425 0.881250
0.516117 0.109092 0.877917
0.647783 0.105758 0.874583
0.779450 0.102425 0.871250
0.900583 0.099358 0.868183
1.000000 0.096292 0.865117
0.018067 0.239467 0.887467
0.131958 0.236583 0.884583
0.249800 0.233600 0.881600
0.381467 0.230267 0.878267
0.513133 0.226933 0.874933
0.644800 0.223600 0.871600
0.776467 0.220267 0.868267
0.897600 0.217200 0.865200
1.000000 0.214133 0.862133
0.014733 0.371133 0.884133
0.128625 0.368250 0.881250
0.246467 0.365267 0.878267
0.378133 0.361933 0.874933
0.509800 0.358600 0.871600
0.641467 0.355267 0.868267
0.773133 0.351933 0.864933
0.894267 0.348867 0.861867
1.000000 0.345800 0.858800
0.011400 0.502800 0.880800
0.125292 0.499917 0.877917
0.243133 0.496933 0.874933
0.374800 0.493600 0.871600
0.506467 0.490267 0.868267
0.638133 0.486933 0.864933
0.769800 0.483600 0.861600
0.890933 0.480533 0.858533
1.000000 0.477467 0.855467
0.008067 0.634467 0.877467
0.121958 0.631583 0.874583
0.239800 0.628600 0.871600
0.371467 0.625267 0.868267
0.503133 0.621933 0.864933
0.634800 0.618600 0.861600
0.766467 0.615267 0.858267
0.887600 0.612200 0.855200
1.000000 0.609133 0.852133
0.004733 0.766133 0.874133
0.118625 0.763250 0.871250
0.236467 0.760267 0.868267
0.368133 0.756933 0.864933
0.499800 0.753600 0.861600
0.631467 0.750267 0.858267
0.763133 0.746933 0.854933
0.884267 0.743867 0.851867
1.000000 0.740800 0.848800
0.001667 0.887267 0.871067
0.115558 0.884383 0.868183
0.233400 0.881400 0.865200
0.365067 0.878067 0.861867
0.496733 0.874733 0.858533
0.628400 0.871400 0.855200
0.760067 0.868067 0.851867
0.881200 0.865000 0.848800
1.000000 0.861933 0.845733
0.000000 1.000000 0.868000
0.112492 1.000000 0.865117
0.230333 1.000000 0.862133
0.362000 0.999200 0.858800
0.493667 0.995867 0.855467
0.625333 0.992533 0.852133
0.757000 0.989200 0.848800
0.878133 0.986133 0.845733
0.999267 0.983067 0.842667
0.020867 0.004667 1.000000
0.134758 0.001783 1.000000
0.252600 0.000000 1.000000
0.384267 0.000000 1.000000
0.515933 0.000000 1.000000
0.647600 0.000000 0.998600
0.779267 0.000000 0.995267
0.900400 0.000000 0.992200
1.000000 0.000000 0.989133
0.017983 0.118558 1.000000
0.131875 0.115675 1.000000
0.249717 0.112692 1.000000
0.381383 0.109358 1.000000
0.513050 0.106025 0.999050
0.644717 0.102692 0.995717
0.776383 0.099358 0.992383
0.897517 0.096292 0.989317
1.000000 0.093225 0.986250
0.015000 0.236400 1.000000
0.128892 0.233517 1.000000
0.246733 0.230533 1.000000
0.378400 0.227200 0.999400
0.510067 0.223867 0.996067
0.641733 0.220533 0.992733
0.773400 0.217200 0.989400
0.894533 0.214133 0.986333
1.000000 0.211067 0.983267
0.011667 0.368067 1.000000
0.125558 0.365183 1.000000
0.243400 0.362200 0.999400
0.375067 0.358867 0.996067
0.506733 0.355533 0.992733
0.638400 0.352200 0.989400
0.770067 0.348867 0.986067
0.891200 0.345800 0.983000
1.000000 0.342733 0.979933
0.008333 0.499733 1.000000
0.122225 0.496850 0.999050
0.240067 0.493867 0.996067
0.371733 0.490533 0.992733
0.503400 0.487200 0.989400
0.635067 0.483867 0.986067
0.766733 0.480533 0.982733
0.887867 0.477467 0.979667
1.000000 0.474400 0.976600
0.005000 0.631400 0.998600
0.118892 0.628517 0.995717
0.236733 0.625533 0.992733
0.368400 0.622200 0.989400
0.500067 0.618867 0.986067
0.631733 0.615533 0.982733
0.763400 0.612200 0.979400
0.884533 0.609133 0.976333
1.000000 0.606067 0.973267
0.001667 0.763067 0.995267
0.115558 0.760183 0.992383
0.233400 0.757200 0.989400
0.365067 0.753867 0.986067
0.496733 0.750533 0.982733
0.628400 0.747200 0.979400
0.760067 0.743867 0.976067
0.881200 0.740800 0.973000
1.000000 0.737733 0.969933
0.000000 0.884200 0.992200
0.112492 0.881317 0.989317
0.230333 0.878333 0.986333
0.362000 0.875000 0.983000
0.493667 0.871667 0.979667
0.625333 0.868333 0.976333
0.757000 0.865000 0.973000
0.878133 0.861933 0.969933
0.999267 0.858867 0.966867
0.000000 1.000000 0.989133
0.109425 1.000000 0.986250
0.227267 0.999467 0.983267
0.358933 0.996133 0.979933
0.490600 0.992800 0.976600
0.622267 0.989467 0.973267
0.753933 0.986133 0.969933
0.875067 0.983067 0.966867
0.996200 0.980000 0.963800
