app/src/main/assets/luts/builtin/builtin_kodak_portra_400_33.cube
TITLE "builtin_kodak_portra_400_33.cube"
LUT_3D_SIZE 9
# Built-in fallback LUT for OMaster
DOMAIN_MIN 0.0 0.0 0.0
DOMAIN_MAX 1.0 1.0 1.0
0.044500 0.027840 0.000000
0.186194 0.027840 0.000000
0.314467 0.027840 0.000000
0.438118 0.027840 0.000000
0.558861 0.027840 0.000000
0.677487 0.027840 0.000000
0.792479 0.027840 0.000000
0.902300 0.027840 0.000000
1.000000 0.027840 0.000000
0.044500 0.158225 0.000000
0.186194 0.158225 0.000000
0.314467 0.158225 0.000000
0.438118 0.158225 0.000000
0.558861 0.158225 0.000000
0.677487 0.158225 0.000000
0.792479 0.158225 0.000000
0.902300 0.158225 0.000000
1.000000 0.158225 0.000000
0.044500 0.283244 0.000000
0.186194 0.283244 0.000000
0.314467 0.283244 0.000000
0.438118 0.283244 0.000000
0.558861 0.283244 0.000000
0.677487 0.283244 0.000000
0.792479 0.283244 0.000000
0.902300 0.283244 0.000000
1.000000 0.283244 0.000000
0.044500 0.406314 0.000000
0.186194 0.406314 0.000000
0.314467 0.406314 0.000000
0.438118 0.406314 0.000000
0.558861 0.406314 0.000000
0.677487 0.406314 0.000000
0.792479 0.406314 0.000000
0.902300 0.406314 0.000000
1.000000 0.406314 0.000000
0.044500 0.528136 0.000000
0.186194 0.528136 0.000000
0.314467 0.528136 0.000000
0.438118 0.528136 0.000000
0.558861 0.528136 0.000000
0.677487 0.528136 0.000000
0.792479 0.528136 0.000000
0.902300 0.528136 0.000000
1.000000 0.528136 0.000000
0.044500 0.649037 0.000000
0.186194 0.649037 0.000000
0.314467 0.649037 0.000000
0.438118 0.649037 0.000000
0.558861 0.649037 0.000000
0.677487 0.649037 0.000000
0.792479 0.649037 0.000000
0.902300 0.649037 0.000000
1.000000 0.649037 0.000000
0.044500 0.768500 0.000000
0.186194 0.768500 0.000000
0.314467 0.768500 0.000000
0.438118 0.768500 0.000000
0.558861 0.768500 0.000000
0.677487 0.768500 0.000000
0.792479 0.768500 0.000000
0.902300 0.768500 0.000000
1.000000 0.768500 0.000000
0.044500 0.882093 0.000000
0.186194 0.882093 0.000000
0.314467 0.882093 0.000000
0.438118 0.882093 0.000000
0.558861 0.882093 0.000000
0.677487 0.882093 0.000000
0.792479 0.882093 0.000000
0.902300 0.882093 0.000000
1.000000 0.882093 0.000000
0.044500 0.995198 0.000000
0.186194 0.995198 0.000000
0.314467 0.995198 0.000000
0.438118 0.995198 0.000000
0.558861 0.995198 0.000000
0.677487 0.995198 0.000000
0.792479 0.995198 0.000000
0.902300 0.995198 0.000000
1.000000 0.995198 0.000000
0.044500 0.027840 0.113010
0.186194 0.027840 0.113010
0.314467 0.027840 0.113010
0.438118 0.027840 0.113010
0.558861 0.027840 0.113010
0.677487 0.027840 0.113010
0.792479 0.027840 0.113010
0.902300 0.027840 0.113010
1.000000 0.027840 0.113010
0.044500 0.158225 0.113010
0.186194 0.158225 0.113010
0.314467 0.158225 0.113010
0.438118 0.158225 0.113010
0.558861 0.158225 0.113010
0.677487 0.158225 0.113010
0.792479 0.158225 0.113010
0.902300 0.158225 0.113010
1.000000 0.158225 0.113010
0.044500 0.283244 0.113010
0.186194 0.283244 0.113010
0.314467 0.283244 0.113010
0.438118 0.283244 0.113010
0.558861 0.283244 0.113010
0.677487 0.283244 0.113010
0.792479 0.283244 0.113010
0.902300 0.283244 0.113010
1.000000 0.283244 0.113010
0.044500 0.406314 0.113010
0.186194 0.406314 0.113010
0.314467 0.406314 0.113010
0.438118 0.406314 0.113010
0.558861 0.406314 0.113010
0.677487 0.406314 0.113010
0.792479 0.406314 0.113010
0.902300 0.406314 0.113010
1.000000 0.406314 0.113010
0.044500 0.528136 0.113010
0.186194 0.528136 0.113010
0.314467 0.528136 0.113010
0.438118 0.528136 0.113010
0.558861 0.528136 0.113010
0.677487 0.528136 0.113010
0.792479 0.528136 0.113010
0.902300 0.528136 0.113010
1.000000 0.528136 0.113010
0.044500 0.649037 0.113010
0.186194 0.649037 0.113010
0.314467 0.649037 0.113010
0.438118 0.649037 0.113010
0.558861 0.649037 0.113010
0.677487 0.649037 0.113010
0.792479 0.649037 0.113010
0.902300 0.649037 0.113010
1.000000 0.649037 0.113010
0.044500 0.768500 0.113010
0.186194 0.768500 0.113010
0.314467 0.768500 0.113010
0.438118 0.768500 0.113010
0.558861 0.768500 0.113010
0.677487 0.768500 0.113010
0.792479 0.768500 0.113010
0.902300 0.768500 0.113010
1.000000 0.768500 0.113010
0.044500 0.882093 0.113010
0.186194 0.882093 0.113010
0.314467 0.882093 0.113010
0.438118 0.882093 0.113010
0.558861 0.882093 0.113010
0.677487 0.882093 0.113010
0.792479 0.882093 0.113010
0.902300 0.882093 0.113010
1.000000 0.882093 0.113010
0.044500 0.995198 0.113010
0.186194 0.995198 0.113010
0.314467 0.995198 0.113010
0.438118 0.995198 0.113010
0.558861 0.995198 0.113010
0.677487 0.995198 0.113010
0.792479 0.995198 0.113010
0.902300 0.995198 0.113010
1.000000 0.995198 0.113010
0.044500 0.027840 0.233800
0.186194 0.027840 0.233800
0.314467 0.027840 0.233800
0.438118 0.027840 0.233800
0.558861 0.027840 0.233800
0.677487 0.027840 0.233800
0.792479 0.027840 0.233800
0.902300 0.027840 0.233800
1.000000 0.027840 0.233800
0.044500 0.158225 0.233800
0.186194 0.158225 0.233800
0.314467 0.158225 0.233800
0.438118 0.158225 0.233800
0.558861 0.158225 0.233800
0.677487 0.158225 0.233800
0.792479 0.158225 0.233800
0.902300 0.158225 0.233800
1.000000 0.158225 0.233800
0.044500 0.283244 0.233800
0.186194 0.283244 0.233800
0.314467 0.283244 0.233800
0.438118 0.283244 0.233800
0.558861 0.283244 0.233800
0.677487 0.283244 0.233800
0.792479 0.283244 0.233800
0.902300 0.283244 0.233800
1.000000 0.283244 0.233800
0.044500 0.406314 0.233800
0.186194 0.406314 0.233800
0.314467 0.406314 0.233800
0.438118 0.406314 0.233800
0.558861 0.406314 0.233800
0.677487 0.406314 0.233800
0.792479 0.406314 0.233800
0.902300 0.406314 0.233800
1.000000 0.406314 0.233800
0.044500 0.528136 0.233800
0.186194 0.528136 0.233800
0.314467 0.528136 0.233800
0.438118 0.528136 0.233800
0.558861 0.528136 0.233800
0.677487 0.528136 0.233800
0.792479 0.528136 0.233800
0.902300 0.528136 0.233800
1.000000 0.528136 0.233800
0.044500 0.649037 0.233800
0.186194 0.649037 0.233800
0.314467 0.649037 0.233800
0.438118 0.649037 0.233800
0.558861 0.649037 0.233800
0.677487 0.649037 0.233800
0.792479 0.649037 0.233800
0.902300 0.649037 0.233800
1.000000 0.649037 0.233800
0.044500 0.768500 0.233800
0.186194 0.768500 0.233800
0.314467 0.768500 0.233800
0.438118 0.768500 0.233800
0.558861 0.768500 0.233800
0.677487 0.768500 0.233800
0.792479 0.768500 0.233800
0.902300 0.768500 0.233800
1.000000 0.768500 0.233800
0.044500 0.882093 0.233800
0.186194 0.882093 0.233800
0.314467 0.882093 0.233800
0.438118 0.882093 0.233800
0.558861 0.882093 0.233800
0.677487 0.882093 0.233800
0.792479 0.882093 0.233800
0.902300 0.882093 0.233800
1.000000 0.882093 0.233800
0.044500 0.995198 0.233800
0.186194 0.995198 0.233800
0.314467 0.995198 0.233800
0.438118 0.995198 0.233800
0.558861 0.995198 0.233800
0.677487 0.995198 0.233800
0.792479 0.995198 0.233800
0.902300 0.995198 0.233800
1.000000 0.995198 0.233800
0.044500 0.027840 0.355861
0.186194 0.027840 0.355861
0.314467 0.027840 0.355861
0.438118 0.027840 0.355861
0.558861 0.027840 0.355861
0.677487 0.027840 0.355861
0.792479 0.027840 0.355861
0.902300 0.027840 0.355861
1.000000 0.027840 0.355861
0.044500 0.158225 0.355861
0.186194 0.158225 0.355861
0.314467 0.158225 0.355861
0.438118 0.158225 0.355861
0.558861 0.158225 0.355861
0.677487 0.158225 0.355861
0.792479 0.158225 0.355861
0.902300 0.158225 0.355861
1.000000 0.158225 0.355861
0.044500 0.283244 0.355861
0.186194 0.283244 0.355861
0.314467 0.283244 0.355861
0.438118 0.283244 0.355861
0.558861 0.283244 0.355861
0.677487 0.283244 0.355861
0.792479 0.283244 0.355861
0.902300 0.283244 0.355861
1.000000 0.283244 0.355861
0.044500 0.406314 0.355861
0.186194 0.406314 0.355861
0.314467 0.406314 0.355861
0.438118 0.406314 0.355861
0.558861 0.406314 0.355861
0.677487 0.406314 0.355861
0.792479 0.406314 0.355861
0.902300 0.406314 0.355861
1.000000 0.406314 0.355861
0.044500 0.528136 0.355861
0.186194 0.528136 0.355861
0.314467 0.528136 0.355861
0.438118 0.528136 0.355861
0.558861 0.528136 0.355861
0.677487 0.528136 0.355861
0.792479 0.528136 0.355861
0.902300 0.528136 0.355861
1.000000 0.528136 0.355861
0.044500 0.649037 0.355861
0.186194 0.649037 0.355861
0.314467 0.649037 0.355861
0.438118 0.649037 0.355861
0.558861 0.649037 0.355861
0.677487 0.649037 0.355861
0.792479 0.649037 0.355861
0.902300 0.649037 0.355861
1.000000 0.649037 0.355861
0.044500 0.768500 0.355861
0.186194 0.768500 0.355861
0.314467 0.768500 0.355861
0.438118 0.768500 0.355861
0.558861 0.768500 0.355861
0.677487 0.768500 0.355861
0.792479 0.768500 0.355861
0.902300 0.768500 0.355861
1.000000 0.768500 0.355861
0.044500 0.882093 0.355861
0.186194 0.882093 0.355861
0.314467 0.882093 0.355861
0.438118 0.882093 0.355861
0.558861 0.882093 0.355861
0.677487 0.882093 0.355861
0.792479 0.882093 0.355861
0.902300 0.882093 0.355861
1.000000 0.882093 0.355861
0.044500 0.995198 0.355861
0.186194 0.995198 0.355861
0.314467 0.995198 0.355861
0.438118 0.995198 0.355861
0.558861 0.995198 0.355861
0.677487 0.995198 0.355861
0.792479 0.995198 0.355861
0.902300 0.995198 0.355861
1.000000 0.995198 0.355861
0.044500 0.027840 0.478754
0.186194 0.027840 0.478754
0.314467 0.027840 0.478754
0.438118 0.027840 0.478754
0.558861 0.027840 0.478754
0.677487 0.027840 0.478754
0.792479 0.027840 0.478754
0.902300 0.027840 0.478754
1.000000 0.027840 0.478754
0.044500 0.158225 0.478754
0.186194 0.158225 0.478754
0.314467 0.158225 0.478754
0.438118 0.158225 0.478754
0.558861 0.158225 0.478754
0.677487 0.158225 0.478754
0.792479 0.158225 0.478754
0.902300 0.158225 0.478754
1.000000 0.158225 0.478754
0.044500 0.283244 0.478754
0.186194 0.283244 0.478754
0.314467 0.283244 0.478754
0.438118 0.283244 0.478754
0.558861 0.283244 0.478754
0.677487 0.283244 0.478754
0.792479 0.283244 0.478754
0.902300 0.283244 0.478754
1.000000 0.283244 0.478754
0.044500 0.406314 0.478754
0.186194 0.406314 0.478754
0.314467 0.406314 0.478754
0.438118 0.406314 0.478754
0.558861 0.406314 0.478754
0.677487 0.406314 0.478754
0.792479 0.406314 0.478754
0.902300 0.406314 0.478754
1.000000 0.406314 0.478754
0.044500 0.528136 0.478754
0.186194 0.528136 0.478754
0.314467 0.528136 0.478754
0.438118 0.528136 0.478754
0.558861 0.528136 0.478754
0.677487 0.528136 0.478754
0.792479 0.528136 0.478754
0.902300 0.528136 0.478754
1.000000 0.528136 0.478754
0.044500 0.649037 0.478754
0.186194 0.649037 0.478754
0.314467 0.649037 0.478754
0.438118 0.649037 0.478754
0.558861 0.649037 0.478754
0.677487 0.649037 0.478754
0.792479 0.649037 0.478754
0.902300 0.649037 0.478754
1.000000 0.649037 0.478754
0.044500 0.768500 0.478754
0.186194 0.768500 0.478754
0.314467 0.768500 0.478754
0.438118 0.768500 0.478754
0.558861 0.768500 0.478754
0.677487 0.768500 0.478754
0.792479 0.768500 0.478754
0.902300 0.768500 0.478754
1.000000 0.768500 0.478754
0.044500 0.882093 0.478754
0.186194 0.882093 0.478754
0.314467 0.882093 0.478754
0.438118 0.882093 0.478754
0.558861 0.882093 0.478754
0.677487 0.882093 0.478754
0.792479 0.882093 0.478754
0.902300 0.882093 0.478754
1.000000 0.882093 0.478754
0.044500 0.995198 0.478754
0.186194 0.995198 0.478754
0.314467 0.995198 0.478754
0.438118 0.995198 0.478754
0.558861 0.995198 0.478754
0.677487 0.995198 0.478754
0.792479 0.995198 0.478754
0.902300 0.995198 0.478754
1.000000 0.995198 0.478754
0.044500 0.027840 0.602269
0.186194 0.027840 0.602269
0.314467 0.027840 0.602269
0.438118 0.027840 0.602269
0.558861 0.027840 0.602269
0.677487 0.027840 0.602269
0.792479 0.027840 0.602269
0.902300 0.027840 0.602269
1.000000 0.027840 0.602269
0.044500 0.158225 0.602269
0.186194 0.158225 0.602269
0.314467 0.158225 0.602269
0.438118 0.158225 0.602269
0.558861 0.158225 0.602269
0.677487 0.158225 0.602269
0.792479 0.158225 0.602269
0.902300 0.158225 0.602269
1.000000 0.158225 0.602269
0.044500 0.283244 0.602269
0.186194 0.283244 0.602269
0.314467 0.283244 0.602269
0.438118 0.283244 0.602269
0.558861 0.283244 0.602269
0.677487 0.283244 0.602269
0.792479 0.283244 0.602269
0.902300 0.283244 0.602269
1.000000 0.283244 0.602269
0.044500 0.406314 0.602269
0.186194 0.406314 0.602269
0.314467 0.406314 0.602269
0.438118 0.406314 0.602269
0.558861 0.406314 0.602269
0.677487 0.406314 0.602269
0.792479 0.406314 0.602269
0.902300 0.406314 0.602269
1.000000 0.406314 0.602269
0.044500 0.528136 0.602269
0.186194 0.528136 0.602269
0.314467 0.528136 0.602269
0.438118 0.528136 0.602269
0.558861 0.528136 0.602269
0.677487 0.528136 0.602269
0.792479 0.528136 0.602269
0.902300 0.528136 0.602269
1.000000 0.528136 0.602269
0.044500 0.649037 0.602269
0.186194 0.649037 0.602269
0.314467 0.649037 0.602269
0.438118 0.649037 0.602269
0.558861 0.649037 0.602269
0.677487 0.649037 0.602269
0.792479 0.649037 0.602269
0.902300 0.649037 0.602269
1.000000 0.649037 0.602269
0.044500 0.768500 0.602269
0.186194 0.768500 0.602269
0.314467 0.768500 0.602269
0.438118 0.768500 0.602269
0.558861 0.768500 0.602269
0.677487 0.768500 0.602269
0.792479 0.768500 0.602269
0.902300 0.768500 0.602269
1.000000 0.768500 0.602269
0.044500 0.882093 0.602269
0.186194 0.882093 0.602269
0.314467 0.882093 0.602269
0.438118 0.882093 0.602269
0.558861 0.882093 0.602269
0.677487 0.882093 0.602269
0.792479 0.882093 0.602269
0.902300 0.882093 0.602269
1.000000 0.882093 0.602269
0.044500 0.995198 0.602269
0.186194 0.995198 0.602269
0.314467 0.995198 0.602269
0.438118 0.995198 0.602269
0.558861 0.995198 0.602269
0.677487 0.995198 0.602269
0.792479 0.995198 0.602269
0.902300 0.995198 0.602269
1.000000 0.995198 0.602269
0.044500 0.027840 0.726283
0.186194 0.027840 0.726283
0.314467 0.027840 0.726283
0.438118 0.027840 0.726283
0.558861 0.027840 0.726283
0.677487 0.027840 0.726283
0.792479 0.027840 0.726283
0.902300 0.027840 0.726283
1.000000 0.027840 0.726283
0.044500 0.158225 0.726283
0.186194 0.158225 0.726283
0.314467 0.158225 0.726283
0.438118 0.158225 0.726283
0.558861 0.158225 0.726283
0.677487 0.158225 0.726283
0.792479 0.158225 0.726283
0.902300 0.158225 0.726283
1.000000 0.158225 0.726283
0.044500 0.283244 0.726283
0.186194 0.283244 0.726283
0.314467 0.283244 0.726283
0.438118 0.283244 0.726283
0.558861 0.283244 0.726283
0.677487 0.283244 0.726283
0.792479 0.283244 0.726283
0.902300 0.283244 0.726283
1.000000 0.283244 0.726283
0.044500 0.406314 0.726283
0.186194 0.406314 0.726283
0.314467 0.406314 0.726283
0.438118 0.406314 0.726283
0.558861 0.406314 0.726283
0.677487 0.406314 0.726283
0.792479 0.406314 0.726283
0.902300 0.406314 0.726283
1.000000 0.406314 0.726283
0.044500 0.528136 0.726283
0.186194 0.528136 0.726283
0.314467 0.528136 0.726283
0.438118 0.528136 0.726283
0.558861 0.528136 0.726283
0.677487 0.528136 0.726283
0.792479 0.528136 0.726283
0.902300 0.528136 0.726283
1.000000 0.528136 0.726283
0.044500 0.649037 0.726283
0.186194 0.649037 0.726283
0.314467 0.649037 0.726283
0.438118 0.649037 0.726283
0.558861 0.649037 0.726283
0.677487 0.649037 0.726283
0.792479 0.649037 0.726283
0.902300 0.649037 0.726283
1.000000 0.649037 0.726283
0.044500 0.768500 0.726283
0.186194 0.768500 0.726283
0.314467 0.768500 0.726283
0.438118 0.768500 0.726283
0.558861 0.768500 0.726283
0.677487 0.768500 0.726283
0.792479 0.768500 0.726283
0.902300 0.768500 0.726283
1.000000 0.768500 0.726283
0.044500 0.882093 0.726283
0.186194 0.882093 0.726283
0.314467 0.882093 0.726283
0.438118 0.882093 0.726283
0.558861 0.882093 0.726283
0.677487 0.882093 0.726283
0.792479 0.882093 0.726283
0.902300 0.882093 0.726283
1.000000 0.882093 0.726283
0.044500 0.995198 0.726283
0.186194 0.995198 0.726283
0.314467 0.995198 0.726283
0.438118 0.995198 0.726283
0.558861 0.995198 0.726283
0.677487 0.995198 0.726283
0.792479 0.995198 0.726283
0.902300 0.995198 0.726283
1.000000 0.995198 0.726283
0.044500 0.027840 0.845927
0.186194 0.027840 0.845927
0.314467 0.027840 0.845927
0.438118 0.027840 0.845927
0.558861 0.027840 0.845927
0.677487 0.027840 0.845927
0.792479 0.027840 0.845927
0.902300 0.027840 0.845927
1.000000 0.027840 0.845927
0.044500 0.158225 0.845927
0.186194 0.158225 0.845927
0.314467 0.158225 0.845927
0.438118 0.158225 0.845927
0.558861 0.158225 0.845927
0.677487 0.158225 0.845927
0.792479 0.158225 0.845927
0.902300 0.158225 0.845927
1.000000 0.158225 0.845927
0.044500 0.283244 0.845927
0.186194 0.283244 0.845927
0.314467 0.283244 0.845927
0.438118 0.283244 0.845927
0.558861 0.283244 0.845927
0.677487 0.283244 0.845927
0.792479 0.283244 0.845927
0.902300 0.283244 0.845927
1.000000 0.283244 0.845927
0.044500 0.406314 0.845927
0.186194 0.406314 0.845927
0.314467 0.406314 0.845927
0.438118 0.406314 0.845927
0.558861 0.406314 0.845927
0.677487 0.406314 0.845927
0.792479 0.406314 0.845927
0.902300 0.406314 0.845927
1.000000 0.406314 0.845927
0.044500 0.528136 0.845927
0.186194 0.528136 0.845927
0.314467 0.528136 0.845927
0.438118 0.528136 0.845927
0.558861 0.528136 0.845927
0.677487 0.528136 0.845927
0.792479 0.528136 0.845927
0.902300 0.528136 0.845927
1.000000 0.528136 0.845927
0.044500 0.649037 0.845927
0.186194 0.649037 0.845927
0.314467 0.649037 0.845927
0.438118 0.649037 0.845927
0.558861 0.649037 0.845927
0.677487 0.649037 0.845927
0.792479 0.649037 0.845927
0.902300 0.649037 0.845927
1.000000 0.649037 0.845927
0.044500 0.768500 0.845927
0.186194 0.768500 0.845927
0.314467 0.768500 0.845927
0.438118 0.768500 0.845927
0.558861 0.768500 0.845927
0.677487 0.768500 0.845927
0.792479 0.768500 0.845927
0.902300 0.768500 0.845927
1.000000 0.768500 0.845927
0.044500 0.882093 0.845927
0.186194 0.882093 0.845927
0.314467 0.882093 0.845927
0.438118 0.882093 0.845927
0.558861 0.882093 0.845927
0.677487 0.882093 0.845927
0.792479 0.882093 0.845927
0.902300 0.882093 0.845927
1.000000 0.882093 0.845927
0.044500 0.995198 0.845927
0.186194 0.995198 0.845927
0.314467 0.995198 0.845927
0.438118 0.995198 0.845927
0.558861 0.995198 0.845927
0.677487 0.995198 0.845927
0.792479 0.995198 0.845927
0.902300 0.995198 0.845927
1.000000 0.995198 0.845927
0.044500 0.027840 0.964475
0.186194 0.027840 0.964475
0.314467 0.027840 0.964475
0.438118 0.027840 0.964475
0.558861 0.027840 0.964475
0.677487 0.027840 0.964475
0.792479 0.027840 0.964475
0.902300 0.027840 0.964475
1.000000 0.027840 0.964475
0.044500 0.158225 0.964475
0.186194 0.158225 0.964475
0.314467 0.158225 0.964475
0.438118 0.158225 0.964475
0.558861 0.158225 0.964475
0.677487 0.158225 0.964475
0.792479 0.158225 0.964475
0.902300 0.158225 0.964475
1.000000 0.158225 0.964475
0.044500 0.283244 0.964475
0.186194 0.283244 0.964475
0.314467 0.283244 0.964475
0.438118 0.283244 0.964475
0.558861 0.283244 0.964475
0.677487 0.283244 0.964475
0.792479 0.283244 0.964475
0.902300 0.283244 0.964475
1.000000 0.283244 0.964475
0.044500 0.406314 0.964475
0.186194 0.406314 0.964475
0.314467 0.406314 0.964475
0.438118 0.406314 0.964475
0.558861 0.406314 0.964475
0.677487 0.406314 0.964475
0.792479 0.406314 0.964475
0.902300 0.406314 0.964475
1.000000 0.406314 0.964475
0.044500 0.528136 0.964475
0.186194 0.528136 0.964475
0.314467 0.528136 0.964475
0.438118 0.528136 0.964475
0.558861 0.528136 0.964475
0.677487 0.528136 0.964475
0.792479 0.528136 0.964475
0.902300 0.528136 0.964475
1.000000 0.528136 0.964475
0.044500 0.649037 0.964475
0.186194 0.649037 0.964475
0.314467 0.649037 0.964475
0.438118 0.649037 0.964475
0.558861 0.649037 0.964475
0.677487 0.649037 0.964475
0.792479 0.649037 0.964475
0.902300 0.649037 0.964475
1.000000 0.649037 0.964475
0.044500 0.768500 0.964475
0.186194 0.768500 0.964475
0.314467 0.768500 0.964475
0.438118 0.768500 0.964475
0.558861 0.768500 0.964475
0.677487 0.768500 0.964475
0.792479 0.768500 0.964475
0.902300 0.768500 0.964475
1.000000 0.768500 0.964475
0.044500 0.882093 0.964475
0.186194 0.882093 0.964475
0.314467 0.882093 0.964475
0.438118 0.882093 0.964475
0.558861 0.882093 0.964475
0.677487 0.882093 0.964475
0.792479 0.882093 0.964475
0.902300 0.882093 0.964475
1.000000 0.882093 0.964475
0.044500 0.995198 0.964475
0.186194 0.995198 0.964475
0.314467 0.995198 0.964475
0.438118 0.995198 0.964475
0.558861 0.995198 0.964475
0.677487 0.995198 0.964475
0.792479 0.995198 0.964475
0.902300 0.995198 0.964475
1.000000 0.995198 0.964475
